; generated by PrusaSlicer 2.9.0 on 2025-07-06 at 22:59:02 UTC

; 

; external perimeters extrusion width = 0.42mm
; perimeters extrusion width = 0.42mm
; infill extrusion width = 0.42mm
; solid infill extrusion width = 0.42mm
; top infill extrusion width = 0.42mm
; support material extrusion width = 0.35mm
; first layer extrusion width = 0.42mm

; external perimeters extrusion width = 0.42mm
; perimeters extrusion width = 0.42mm
; infill extrusion width = 0.42mm
; solid infill extrusion width = 0.42mm
; top infill extrusion width = 0.42mm
; support material extrusion width = 0.35mm
; first layer extrusion width = 0.42mm

M73 P0 R22
M190 S60 ; set bed temperature and wait for it to be reached
M104 S215 ; set temperature
;TYPE:Custom
G28 ; home all axes
G1 Z5 F5000 ; lift nozzle
M109 S215 ; set temperature and wait for it to be reached
G21 ; set units to millimeters
G90 ; use absolute coordinates
M82 ; use absolute distances for extrusion
G92 E0
; Filament gcode
M107
;LAYER_CHANGE
;Z:0.2
;HEIGHT:0.2
G1 E-.5 F1800
G1 Z.5 F6000
G1 X109.737 Y55.267
G1 Z.2
G1 E.00001 F1800
M201 X2000 Y2000
;TYPE:Skirt/Brim
;WIDTH:0.42
G1 X111.182 Y52.397 E.09067
G1 X112.333 Y50.805 E.14611
G1 X112.657 Y50.481 E.15904
G1 X114.194 Y49.359 E.21274
G1 X119.958 Y46.382 E.39581
G1 X122.797 Y45.692 E.47826
G1 X155.229 Y45.693 E1.39345
G1 X177.383 Y45.84 E2.01862
G1 X179.56 Y46.252 E2.08114
G1 X181.717 Y47.653 E2.15372
G1 X187.525 Y53.46 E2.38548
G1 X188.786 Y55.283 E2.44803
G1 X189.338 Y57.795 E2.52061
G1 X189.486 Y79.949 E3.14578
G1 X189.103 Y82.132 E3.20832
G1 X187.673 Y84.367 E3.28319
G1 X181.545 Y90.495 E3.52774
G1 X179.722 Y91.756 E3.59029
G1 X177.169 Y92.308 E3.664
G1 X135.95 Y92.308 E4.82715
G1 X122.446 Y92.159 E5.20824
G1 X119.747 Y91.506 E5.2866
G1 X114.09 Y88.678 E5.46507
G1 X112.317 Y87.348 E5.52761
G1 X111.322 Y85.91 E5.57696
G1 X108.494 Y80.253 E5.75543
G1 X107.841 Y77.549 E5.83393
G1 X107.692 Y60.797 E6.30667
G1 X108.354 Y58.013 E6.38742
G1 X109.71 Y55.321 E6.47248
G1 E5.97248
G92 E0
M202 X2000 Y2000
G1 X109.71 Y55.321 Z.5 F6000
G92 E0
G1 X151.231 Y80.462
G1 Z.2
G1 E.5 F1800
;TYPE:Support material interface
;WIDTH:0.35
G1 X157.036 Y74.657 E.68866
G1 X156.572 Y74.657 E.69932
G1 X150.914 Y80.314 E.88318
G1 X150.45 Y80.314 E.89384
G1 X156.107 Y74.657 E1.07769
G1 X155.642 Y74.657 E1.08838
G1 X149.985 Y80.314 E1.27223
G1 X149.521 Y80.314 E1.28289
G1 X155.178 Y74.657 E1.46674
G1 X154.864 Y74.657 E1.47396
G1 X154.864 Y74.506 E1.47743
G1 X149.207 Y80.163 E1.66128
G1 X149.207 Y79.699 E1.67194
G1 X154.864 Y74.042 E1.85579
G1 X154.864 Y73.577 E1.86648
G1 X149.207 Y79.234 E2.05033
G1 X149.207 Y78.769 E2.06102
G1 X154.864 Y73.112 E2.24487
G1 X154.864 Y72.648 E2.25553
G1 X149.207 Y78.305 E2.43938
G1 X149.207 Y77.84 E2.45007
M73 P1 R22
G1 X154.864 Y72.183 E2.63392
G1 X154.864 Y71.829 E2.64206
G1 X155.219 Y71.829 E2.65022
G1 X160.521 Y66.526 E2.82255
G1 X160.521 Y66.991 E2.83324
G1 X155.683 Y71.829 E2.99047
G1 X156.148 Y71.829 E3.00116
G1 X160.521 Y67.455 E3.1433
G1 X160.521 Y67.92 E3.15399
G1 X156.612 Y71.829 E3.28103
G1 X157.077 Y71.829 E3.29172
G1 X160.521 Y68.385 E3.40365
G1 X160.521 Y68.849 E3.41431
G1 X157.542 Y71.829 E3.51114
G1 X157.692 Y71.829 E3.51459
G1 X157.692 Y72.142 E3.52178
G1 X160.521 Y69.314 E3.6137
G1 X160.521 Y69.778 E3.62436
G1 X157.692 Y72.607 E3.7163
G1 X157.692 Y73.072 E3.72699
G1 X160.521 Y70.243 E3.81893
G1 X160.521 Y70.708 E3.82962
G1 X157.692 Y73.536 E3.92154
G1 X157.692 Y74.001 E3.93223
G1 X160.521 Y71.172 E4.02417
G1 X160.521 Y71.637 E4.03486
G1 X151.844 Y80.314 E4.31686
G1 X152.035 Y80.314 E4.32125
G1 X152.035 Y80.587 E4.32752
G1 X160.794 Y71.829 E4.61216
G1 X161.259 Y71.829 E4.62285
G1 X152.035 Y81.052 E4.92261
G1 X152.035 Y81.516 E4.93327
G1 X161.723 Y71.829 E5.24811
G1 X162.188 Y71.829 E5.2588
G1 X152.035 Y81.981 E5.58875
G1 X152.035 Y82.446 E5.59944
G1 X162.653 Y71.829 E5.9445
G1 X163.117 Y71.829 E5.95516
G1 X152.035 Y82.91 E6.3153
G1 X152.035 Y83.143 E6.32065
G1 X152.268 Y83.143 E6.326
G1 X163.35 Y72.061 E6.68616
G1 X163.35 Y72.525 E6.69682
G1 X152.732 Y83.143 E7.0419
G1 X153.197 Y83.143 E7.05259
G1 X163.35 Y72.99 E7.38255
G1 X163.35 Y73.455 E7.39324
G1 X153.661 Y83.143 E7.70811
G1 X154.126 Y83.143 E7.7188
G1 X163.35 Y73.919 E8.01857
G1 X163.35 Y74.384 E8.02926
G1 X154.591 Y83.143 E8.31392
G1 X154.864 Y83.143 E8.32019
G1 X154.864 Y83.334 E8.32458
G1 X163.541 Y74.657 E8.60658
G1 X164.006 Y74.657 E8.61727
G1 X161.177 Y77.486 E8.70921
G1 X161.642 Y77.486 E8.7199
G1 X164.47 Y74.657 E8.81182
G1 X164.935 Y74.657 E8.82251
G1 X162.106 Y77.486 E8.91445
G1 X162.571 Y77.486 E8.92514
G1 X165.399 Y74.657 E9.01706
G1 X165.864 Y74.657 E9.02775
G1 X163.036 Y77.486 E9.11967
G1 X163.35 Y77.486 E9.12689
G1 X163.35 Y77.636 E9.13034
G1 X166.329 Y74.657 E9.22716
G1 X166.793 Y74.657 E9.23782
G1 X163.35 Y78.101 E9.34973
G1 X163.35 Y78.566 E9.36042
G1 X167.258 Y74.657 E9.48744
G1 X167.723 Y74.657 E9.49813
G1 X163.35 Y79.03 E9.64025
G1 X163.35 Y79.495 E9.65094
G1 X168.187 Y74.657 E9.80815
G1 X168.652 Y74.657 E9.81884
G1 X163.202 Y80.107 E9.99596
G1 X163.202 Y80.107 F6000
M73 P1 R21
G1 X163.497 Y80.741
G1 F1800
G1 X158.267 Y85.971 E10.16593
G1 X158.732 Y85.971 E10.17662
G1 X163.35 Y81.353 E10.3267
G1 X163.35 Y81.818 E10.33739
G1 X159.196 Y85.971 E10.47238
G1 X159.661 Y85.971 E10.48307
G1 X163.35 Y82.282 E10.60296
G1 X163.35 Y82.747 E10.61365
G1 X160.125 Y85.971 E10.71844
G1 X160.59 Y85.971 E10.72913
G1 X163.419 Y83.143 E10.82105
G1 X163.883 Y83.143 E10.83171
G1 X161.055 Y85.971 E10.92362
G1 X161.519 Y85.971 E10.93428
G1 X164.348 Y83.143 E11.0262
G1 X164.812 Y83.143 E11.03686
G1 X161.984 Y85.971 E11.12877
G1 X162.449 Y85.971 E11.13946
M73 P2 R21
G1 X165.277 Y83.143 E11.23137
G1 X165.742 Y83.143 E11.24206
G1 X162.913 Y85.971 E11.33398
G1 X163.378 Y85.971 E11.34467
G1 X166.206 Y83.143 E11.43658
G1 X166.671 Y83.143 E11.44727
G1 X163.842 Y85.971 E11.53919
G1 X164.307 Y85.971 E11.54988
G1 X167.136 Y83.143 E11.6418
G1 X167.6 Y83.143 E11.65246
G1 X164.772 Y85.971 E11.74437
G1 X165.236 Y85.971 E11.75503
G1 X168.065 Y83.143 E11.84695
G1 X168.529 Y83.143 E11.85761
G1 X165.701 Y85.971 E11.94952
G1 X166.166 Y85.971 E11.96021
G1 X183.149 Y68.987 E12.51216
G1 X183.149 Y69.452 E12.52285
G1 X166.63 Y85.971 E13.0597
G1 X167.095 Y85.971 E13.07039
G1 X183.149 Y69.917 E13.59213
G1 X183.149 Y70.381 E13.60279
G1 X167.559 Y85.971 E14.10945
G1 X168.024 Y85.971 E14.12014
G1 X183.149 Y70.846 E14.61169
G1 X183.149 Y71.311 E14.62238
G1 X168.489 Y85.971 E15.09882
G1 X168.953 Y85.971 E15.10948
G1 X183.149 Y71.775 E15.57084
G1 X183.149 Y72.24 E15.58153
G1 X169.418 Y85.971 E16.02778
G1 X169.883 Y85.971 E16.03847
G1 X183.149 Y72.704 E16.46962
G1 X183.149 Y73.169 E16.48031
G1 X170.347 Y85.971 E16.89636
G1 X170.812 Y85.971 E16.90705
G1 X183.149 Y73.634 E17.30799
G1 X183.149 Y74.098 E17.31865
G1 X171.276 Y85.971 E17.70451
G1 X171.741 Y85.971 E17.7152
G1 X183.149 Y74.563 E18.08595
G1 X183.149 Y75.028 E18.09664
G1 X172.206 Y85.971 E18.45228
G1 X172.67 Y85.971 E18.46294
G1 X183.149 Y75.492 E18.8035
G1 X183.149 Y75.957 E18.81419
G1 X173.135 Y85.971 E19.13964
G1 X173.6 Y85.971 E19.15033
G1 X183.149 Y76.421 E19.46068
G1 X183.149 Y76.886 E19.47137
G1 X173.916 Y86.119 E19.77144
G1 E19.27144
G92 E0
G1 X173.916 Y86.119 Z.5 F6000
G1 X168.859 Y82.813
G1 Z.2
G1 E.5 F1800
G1 X171.358 Y80.314 E.58122
G1 X170.893 Y80.314 E.59191
G1 X169.007 Y82.201 E.65322
G1 X169.007 Y81.736 E.66391
M73 P3 R21
G1 X170.429 Y80.314 E.71012
G1 X169.964 Y80.314 E.72081
G1 X169.007 Y81.272 E.75193
G1 X169.007 Y80.807 E.76262
G1 X169.5 Y80.314 E.77864
G1 X168.57 Y80.314 E.80001
G1 X169.007 Y79.878 E.8142
G1 X169.007 Y79.413 E.82489
G1 X168.106 Y80.314 E.85417
G1 X167.641 Y80.314 E.86486
G1 X169.007 Y78.949 E.90924
G1 X169.007 Y78.484 E.91993
G1 X167.176 Y80.314 E.97942
G1 X166.712 Y80.314 E.99008
G1 X169.154 Y77.871 E1.06946
G1 E.56946
G92 E0
G1 X169.154 Y77.871 Z.5 F6000
G1 X171.687 Y79.985
G1 Z.2
G1 E.5 F1800
G1 X177.015 Y74.657 E.67316
G1 X176.55 Y74.657 E.68385
G1 X171.835 Y79.372 E.83708
G1 X171.835 Y78.908 E.84774
G1 X176.086 Y74.657 E.98589
G1 X175.621 Y74.657 E.99658
G1 X171.835 Y78.443 E1.11962
G1 X171.835 Y77.979 E1.13028
G1 X175.157 Y74.657 E1.23824
G1 X174.692 Y74.657 E1.24893
G1 X171.835 Y77.514 E1.34178
G1 X171.399 Y77.486 E1.35182
G1 X174.664 Y74.221 E1.45793
G1 X174.664 Y73.756 E1.46862
G1 X170.934 Y77.486 E1.58984
G1 X170.47 Y77.486 E1.6005
G1 X174.664 Y73.291 E1.73682
G1 X174.664 Y72.827 E1.74748
G1 X170.005 Y77.486 E1.89889
G1 X169.54 Y77.486 E1.90958
G1 X174.812 Y72.214 E2.08092
G1 E1.58092
G92 E0
G1 X174.812 Y72.214 Z.5 F6000
G1 X177.344 Y74.328
G1 Z.2
G1 E.5 F1800
G1 X179.844 Y71.829 E.58123
G1 X179.379 Y71.829 E.59192
G1 X177.492 Y73.715 E.65323
G1 X177.492 Y73.251 E.66389
G1 X178.914 Y71.829 E.7101
G1 X178.45 Y71.829 E.72076
G1 X177.492 Y72.786 E.75188
G1 X177.492 Y72.321 E.76257
G1 X177.985 Y71.829 E.77858
G1 X177.056 Y71.829 E.79993
G1 X177.492 Y71.392 E.81412
G1 X177.492 Y70.928 E.82478
G1 X176.591 Y71.829 E.85406
G1 X176.127 Y71.829 E.86472
G1 X177.492 Y70.463 E.9091
G1 X177.492 Y69.998 E.91979
G1 X175.662 Y71.829 E.97928
G1 X175.197 Y71.829 E.98997
G1 X177.492 Y69.534 E1.06456
G1 X177.492 Y69.069 E1.07525
G1 X166.247 Y80.314 E1.4407
G1 X165.782 Y80.314 E1.45139
G1 X177.492 Y68.604 E1.83196
G1 X177.492 Y68.14 E1.84262
G1 X165.318 Y80.314 E2.23827
G1 X164.853 Y80.314 E2.24896
G1 X177.492 Y67.675 E2.65972
G1 X177.492 Y67.211 E2.67038
G1 X164.389 Y80.314 E3.09622
G1 X163.924 Y80.314 E3.10691
G1 X177.64 Y66.598 E3.55267
G1 X177.344 Y65.965 F6000
G1 F1800
G1 X183.149 Y60.16 E3.74133
G1 X183.149 Y59.695 E3.75202
G1 X177.492 Y65.352 E3.93587
G1 X177.492 Y64.887 E3.94656
G1 X183.149 Y59.23 E4.13041
G1 X183.149 Y58.766 E4.14107
G1 X177.492 Y64.423 E4.32492
G1 X177.492 Y63.958 E4.33561
G1 X183.149 Y58.301 E4.51946
G1 X183.149 Y57.836 E4.53015
G1 X177.492 Y63.494 E4.71401
G1 X177.492 Y63.343 E4.71748
G1 X177.178 Y63.343 E4.7247
G1 X182.835 Y57.686 E4.90855
G1 X182.371 Y57.686 E4.91921
G1 X176.714 Y63.343 E5.10306
G1 X176.249 Y63.343 E5.11375
G1 X181.906 Y57.686 E5.2976
G1 X181.441 Y57.686 E5.30829
G1 X175.784 Y63.343 E5.49214
G1 X175.32 Y63.343 E5.5028
G1 X180.977 Y57.686 E5.68665
G1 X180.512 Y57.686 E5.69734
G1 X171.835 Y66.363 E5.97934
G1 X171.835 Y66.171 E5.98375
G1 X171.562 Y66.171 E5.99002
G1 X180.321 Y57.413 E6.27466
G1 X180.321 Y56.948 E6.28535
G1 X171.097 Y66.171 E6.58511
G1 X170.633 Y66.171 E6.59577
G1 X180.321 Y56.483 E6.91062
G1 X180.321 Y56.019 E6.92128
M73 P4 R21
G1 X170.168 Y66.171 E7.25123
G1 X169.703 Y66.171 E7.26192
G1 X180.321 Y55.554 E7.60698
G1 X180.321 Y55.09 E7.61764
G1 X169.239 Y66.171 E7.97778
G1 X169.007 Y66.171 E7.98311
G1 X169.007 Y65.939 E7.98844
G1 X180.088 Y54.857 E8.34858
G1 X179.624 Y54.857 E8.35924
G1 X169.007 Y65.474 E8.70428
G1 X169.007 Y65.01 E8.71494
G1 X179.159 Y54.857 E9.04489
G1 X178.695 Y54.857 E9.05555
G1 X169.007 Y64.545 E9.3704
G1 X169.007 Y64.081 E9.38106
G1 X178.23 Y54.857 E9.68082
G1 X177.765 Y54.857 E9.69151
G1 X169.007 Y63.616 E9.97615
G1 X169.007 Y63.343 E9.98242
G1 X168.815 Y63.343 E9.98683
G1 X177.492 Y54.666 E10.26883
G1 X177.492 Y54.201 E10.27952
G1 X171.835 Y59.858 E10.46337
G1 X171.835 Y59.394 E10.47403
G1 X177.492 Y53.736 E10.65789
G1 X177.492 Y53.272 E10.66855
G1 X171.835 Y58.929 E10.8524
G1 X171.835 Y58.464 E10.86309
G1 X177.492 Y52.807 E11.04694
G1 X177.492 Y52.343 E11.0576
G1 X171.835 Y58 E11.24145
G1 X171.835 Y57.686 E11.24867
G1 X171.684 Y57.686 E11.25214
G1 X177.341 Y52.029 E11.43599
G1 X176.877 Y52.029 E11.44665
G1 X171.22 Y57.686 E11.6305
G1 X170.755 Y57.686 E11.64119
G1 X176.412 Y52.029 E11.82504
G1 X175.948 Y52.029 E11.8357
G1 X170.29 Y57.686 E12.01956
G1 X169.826 Y57.686 E12.03022
G1 X175.483 Y52.029 E12.21407
G1 X175.018 Y52.029 E12.22476
G1 X169.361 Y57.686 E12.40861
G1 X169.007 Y57.686 E12.41675
G1 X169.007 Y58.04 E12.42489
G1 X163.704 Y63.343 E12.59723
G1 X164.169 Y63.343 E12.60792
G1 X169.007 Y58.505 E12.76515
G1 X169.007 Y58.97 E12.77584
G1 X164.633 Y63.343 E12.91798
G1 X165.098 Y63.343 E12.92867
G1 X169.007 Y59.434 E13.05571
G1 X169.007 Y59.899 E13.0664
G1 X165.563 Y63.343 E13.17833
G1 X166.027 Y63.343 E13.18899
G1 X169.007 Y60.364 E13.28582
G1 X169.007 Y60.514 E13.28927
G1 X169.32 Y60.514 E13.29646
G1 X166.492 Y63.343 E13.38838
G1 X166.956 Y63.343 E13.39904
G1 X169.785 Y60.514 E13.49098
G1 X170.25 Y60.514 E13.50167
G1 X167.421 Y63.343 E13.59361
G1 X167.886 Y63.343 E13.6043
G1 X170.714 Y60.514 E13.69622
G1 X171.179 Y60.514 E13.70691
G1 X168.203 Y63.491 E13.80364
G1 E13.30364
G92 E0
G1 X168.203 Y63.491 Z.5 F6000
G1 X163.051 Y66.319
G1 Z.2
G1 E.5 F1800
G1 X163.35 Y66.021 E.5097
G1 X163.35 Y65.556 E.52039
G1 X162.734 Y66.171 E.54039
G1 X162.269 Y66.171 E.55108
G1 X163.35 Y65.091 E.5862
G1 X163.35 Y64.627 E.59686
G1 X161.805 Y66.171 E.64706
G1 X161.34 Y66.171 E.65775
G1 X163.35 Y64.162 E.72306
G1 X163.35 Y63.698 E.73372
G1 X160.728 Y66.319 E.81892
G1 E.31892
G92 E0
G1 X160.728 Y66.319 Z.5 F6000
G1 X157.545 Y65.785
G1 Z.2
G1 E.5 F1800
G1 X162.816 Y60.514 E.6713
G1 X162.351 Y60.514 E.68199
G1 X157.692 Y65.173 E.8334
G1 X157.692 Y64.708 E.84409
G1 X161.886 Y60.514 E.98039
G1 X161.422 Y60.514 E.99105
G1 X157.692 Y64.244 E1.11227
G1 X157.692 Y63.779 E1.12296
G1 X160.957 Y60.514 E1.22907
G1 X160.521 Y60.486 E1.23911
G1 X157.664 Y63.343 E1.33196
G1 X157.199 Y63.343 E1.34265
G1 X160.521 Y60.021 E1.45061
G1 X160.521 Y59.557 E1.46127
G1 X156.735 Y63.343 E1.58431
G1 X156.27 Y63.343 E1.595
G1 X160.521 Y59.092 E1.73315
G1 X160.521 Y58.627 E1.74384
M73 P5 R21
G1 X155.806 Y63.343 E1.89709
G1 X155.341 Y63.343 E1.90778
G1 X160.669 Y58.015 E2.08094
G1 E1.58094
G92 E0
G1 X160.669 Y58.015 Z.5 F6000
G1 X163.202 Y60.128
G1 Z.2
G1 E.5 F1800
G1 X165.644 Y57.686 E.57936
G1 X165.18 Y57.686 E.59002
G1 X163.35 Y59.516 E.64949
G1 X163.35 Y59.051 E.66018
G1 X164.715 Y57.686 E.70454
G1 X164.25 Y57.686 E.71523
G1 X163.35 Y58.587 E.7445
G1 X163.35 Y58.122 E.75519
G1 X163.786 Y57.686 E.76936
G1 X162.856 Y57.686 E.79073
G1 X163.35 Y57.193 E.80677
G1 X163.35 Y56.728 E.81746
G1 X162.392 Y57.686 E.84859
G1 X161.927 Y57.686 E.85928
G1 X163.35 Y56.264 E.90551
G1 X163.35 Y55.799 E.9162
G1 X161.463 Y57.686 E.97753
G1 X160.998 Y57.686 E.98822
G1 X163.497 Y55.186 E1.06945
G1 X163.497 Y55.186 F6000
G1 X163.679 Y55.005
G1 F1800
G1 X166.655 Y52.029 E1.16617
G1 X167.12 Y52.029 E1.17686
G1 X164.291 Y54.857 E1.26878
G1 X164.756 Y54.857 E1.27947
G1 X167.584 Y52.029 E1.37138
G1 X168.049 Y52.029 E1.38207
G1 X165.22 Y54.857 E1.47399
G1 X165.685 Y54.857 E1.48468
G1 X168.514 Y52.029 E1.5766
G1 X168.978 Y52.029 E1.58726
G1 X166.15 Y54.857 E1.67917
G1 X166.614 Y54.857 E1.68983
G1 X169.443 Y52.029 E1.78175
G1 X169.907 Y52.029 E1.79241
G1 X167.079 Y54.857 E1.88432
G1 X167.544 Y54.857 E1.89501
G1 X170.372 Y52.029 E1.98692
G1 X170.837 Y52.029 E1.99761
G1 X168.008 Y54.857 E2.08953
G1 X168.473 Y54.857 E2.10022
G1 X171.301 Y52.029 E2.19213
G1 X171.766 Y52.029 E2.20282
G1 X168.937 Y54.857 E2.29474
G1 X169.007 Y54.857 E2.29635
G1 X169.007 Y55.253 E2.30545
G1 X172.231 Y52.029 E2.41023
G1 X172.695 Y52.029 E2.42089
G1 X169.007 Y55.717 E2.54075
G1 X169.007 Y56.182 E2.55144
G1 X173.16 Y52.029 E2.68641
G1 X173.624 Y52.029 E2.69707
G1 X169.007 Y56.647 E2.84714
G1 X169.007 Y57.111 E2.8578
G1 X174.089 Y52.029 E3.02296
G1 X174.554 Y52.029 E3.03365
G1 X149.059 Y77.523 E3.8622
G1 X149.059 Y77.523 F6000
G1 X149.059 Y77.059
G1 F1800
G1 X154.289 Y71.829 E4.03217
G1 X153.825 Y71.829 E4.04283
G1 X149.207 Y76.446 E4.1929
G1 X149.207 Y75.982 E4.20356
G1 X153.36 Y71.829 E4.33853
G1 X152.895 Y71.829 E4.34922
G1 X149.207 Y75.517 E4.46908
G1 X149.207 Y75.053 E4.47974
G1 X152.431 Y71.829 E4.58452
G1 X152.035 Y71.829 E4.59362
G1 X152.035 Y71.759 E4.59523
G1 X149.207 Y74.588 E4.68715
G1 X149.207 Y74.123 E4.69784
G1 X152.035 Y71.295 E4.78975
G1 X152.035 Y70.83 E4.80044
G1 X149.207 Y73.659 E4.89236
G1 X149.207 Y73.194 E4.90305
G1 X152.035 Y70.365 E4.99497
G1 X152.035 Y69.901 E5.00563
G1 X149.207 Y72.729 E5.09754
G1 X149.207 Y72.265 E5.1082
G1 X152.035 Y69.436 E5.20012
G1 X152.035 Y68.972 E5.21078
G1 X149.207 Y71.8 E5.30269
G1 X149.207 Y71.336 E5.31335
G1 X152.035 Y68.507 E5.40527
