; generated by PrusaSlicer 2.9.0 on 2025-07-05 at 23:35:13 UTC

; 

; external perimeters extrusion width = 0.42mm
; perimeters extrusion width = 0.42mm
; infill extrusion width = 0.42mm
; solid infill extrusion width = 0.42mm
; top infill extrusion width = 0.42mm
; support material extrusion width = 0.35mm
; first layer extrusion width = 0.42mm

; external perimeters extrusion width = 0.42mm
; perimeters extrusion width = 0.42mm
; infill extrusion width = 0.42mm
; solid infill extrusion width = 0.42mm
; top infill extrusion width = 0.42mm
; support material extrusion width = 0.35mm
; first layer extrusion width = 0.42mm

M73 P0 R18
M190 S60 ; set bed temperature and wait for it to be reached
M104 S215 ; set temperature
;TYPE:Custom
G28 ; home all axes
G1 Z5 F5000 ; lift nozzle
M109 S215 ; set temperature and wait for it to be reached
G21 ; set units to millimeters
G90 ; use absolute coordinates
M82 ; use absolute distances for extrusion
G92 E0
; Filament gcode
M107
;LAYER_CHANGE
;Z:0.2
;HEIGHT:0.2
G1 E-.5 F1800
G1 Z.5 F6000
G1 X108.089 Y58.617
G1 Z.2
G1 E.00001 F1800
M201 X2000 Y2000
;TYPE:Skirt/Brim
;WIDTH:0.42
G1 X109.505 Y56.421 E.08193
G1 X118.421 Y47.505 E.47728
G1 X120.243 Y46.244 E.54676
M73 P0 R17
G1 X122.42 Y45.704 E.61709
G1 X166.298 Y43.023 E1.99542
G1 X177.854 Y43.012 E2.35775
G1 X180.622 Y43.665 E2.44692
G1 X186.279 Y46.494 E2.64523
G1 X187.887 Y47.653 E2.70738
G1 X193.393 Y53.177 E2.95192
G1 X194.41 Y54.528 E3.00494
G1 X197.508 Y60.555 E3.21742
G1 X198.185 Y63.288 E3.3057
G1 X198.333 Y74.291 E3.65072
G1 X197.672 Y77.158 E3.74297
G1 X194.844 Y82.774 E3.94012
G1 X193.692 Y84.367 E4.00176
G1 X187.564 Y90.495 E4.27349
G1 X185.972 Y91.646 E4.33509
G1 X180.355 Y94.475 E4.53228
G1 X177.572 Y95.136 E4.62197
G1 X166.423 Y94.987 E4.97157
G1 X122.118 Y92.147 E6.36357
G1 X119.967 Y91.611 E6.43308
G1 X118.138 Y90.347 E6.50279
G1 X109.653 Y81.862 E6.87903
G1 X108.392 Y80.039 E6.94853
G1 X107.841 Y77.549 E7.02849
G1 X107.692 Y60.797 E7.55376
G1 X108.078 Y58.676 E7.62135
G1 E7.12135
G92 E0
M202 X2000 Y2000
G1 X108.078 Y58.676 Z.5 F6000
G92 E0
G1 X155.078 Y79.847
G1 Z.2
M73 P1 R17
G1 E.5 F1800
;TYPE:Support material interface
;WIDTH:0.35
G1 X182.896 Y52.029 E1.50451
G1 X182.431 Y52.029 E1.51638
G1 X155.226 Y79.234 E2.49876
G1 X155.226 Y78.769 E2.51063
G1 X181.967 Y52.029 E3.47624
G1 X181.502 Y52.029 E3.48811
G1 X155.226 Y78.305 E4.43694
G1 X155.226 Y77.84 E4.44881
G1 X181.038 Y52.029 E5.38087
G1 X180.573 Y52.029 E5.39274
G1 X155.226 Y77.376 E6.30803
G1 X155.226 Y76.911 E6.3199
G1 X180.108 Y52.029 E7.21839
G1 X179.644 Y52.029 E7.23024
G1 X155.226 Y76.446 E8.11196
G1 X155.226 Y75.982 E8.12381
G1 X179.179 Y52.029 E8.98876
G1 X178.714 Y52.029 E9.00063
M73 P2 R17
G1 X155.226 Y75.517 E9.84879
G1 X155.226 Y75.053 E9.86064
G1 X178.25 Y52.029 E10.69204
G1 X177.854 Y52.029 E10.70215
G1 X177.854 Y51.96 E10.70391
G1 X155.157 Y74.657 E11.5235
G1 X154.692 Y74.657 E11.53537
G1 X177.854 Y51.495 E12.37175
G1 X177.854 Y51.03 E12.38362
G1 X154.228 Y74.657 E13.23678
G1 X153.763 Y74.657 E13.24865
G1 X177.854 Y50.566 E14.11858
G1 X177.854 Y50.101 E14.13045
G1 X153.298 Y74.657 E15.01717
G1 X152.834 Y74.657 E15.02902
G1 X177.854 Y49.636 E15.93252
G1 X177.854 Y49.2 E15.94365
G1 X152.397 Y74.629 E16.8624
G1 X152.397 Y74.164 E16.87427
M73 P3 R17
G1 X177.361 Y49.2 E17.77573
G1 X176.897 Y49.2 E17.78758
G1 X152.397 Y73.699 E18.67226
G1 X152.397 Y73.235 E18.68411
G1 X176.432 Y49.2 E19.55202
G1 X175.967 Y49.2 E19.56389
G1 X152.397 Y72.77 E20.41501
G1 X152.397 Y72.306 E20.42686
G1 X175.503 Y49.2 E21.26122
G1 X175.038 Y49.2 E21.27309
G1 X152.397 Y71.841 E22.09066
G1 X152.397 Y71.376 E22.10253
G1 X174.574 Y49.2 E22.90333
G1 X174.109 Y49.2 E22.9152
G1 X152.397 Y70.912 E23.69922
G1 X152.397 Y70.447 E23.71109
G1 X173.644 Y49.2 E24.47832
G1 X173.18 Y49.2 E24.49017
G1 X152.397 Y69.982 E25.24063
G1 X152.397 Y69.518 E25.25248
M73 P4 R17
G1 X172.715 Y49.2 E25.98617
G1 X172.25 Y49.2 E25.99804
G1 X152.397 Y69.053 E26.71494
G1 X152.397 Y68.589 E26.72679
G1 X171.786 Y49.2 E27.42693
G1 X171.321 Y49.2 E27.4388
G1 X152.397 Y68.124 E28.12215
G1 X152.397 Y67.659 E28.13402
G1 X170.857 Y49.2 E28.8006
G1 X170.392 Y49.2 E28.81247
G1 X152.397 Y67.195 E29.46227
G1 X152.397 Y66.73 E29.47414
G1 X169.927 Y49.2 E30.10715
G1 X169.463 Y49.2 E30.119
G1 X152.397 Y66.265 E30.73524
G1 X152.397 Y65.801 E30.74709
G1 X154.855 Y63.343 E30.83585
G1 X154.391 Y63.343 E30.8477
G1 X152.397 Y65.336 E30.91969
G1 X152.397 Y64.872 E30.93154
G1 X153.926 Y63.343 E30.98675
G1 X153.462 Y63.343 E30.9986
G1 X152.397 Y64.407 E31.03704
G1 X152.397 Y63.942 E31.04891
G1 X152.997 Y63.343 E31.07056
G1 X152.532 Y63.343 E31.08243
G1 X152.25 Y63.626 E31.09263
G1 E30.59263
G92 E0
G1 X152.25 Y63.626 Z.5 F6000
G1 X155.078 Y63.12
G1 Z.2
G1 E.5 F1800
G1 X166.17 Y52.029 E.90052
G1 X165.705 Y52.029 E.91239
G1 X155.226 Y62.508 E1.29079
G1 X155.226 Y62.043 E1.30266
G1 X165.24 Y52.029 E1.66427
G1 X164.776 Y52.029 E1.67612
G1 X155.226 Y61.578 E2.02095
G1 X155.226 Y61.114 E2.0328
G1 X164.311 Y52.029 E2.36086
G1 X163.846 Y52.029 E2.37273
M73 P5 R17
G1 X155.226 Y60.649 E2.684
G1 X155.226 Y60.185 E2.69585
G1 X157.725 Y57.686 E2.78609
G1 X157.26 Y57.686 E2.79796
G1 X155.226 Y59.72 E2.87141
G1 X155.226 Y59.255 E2.88328
G1 X156.795 Y57.686 E2.93994
G1 X156.331 Y57.686 E2.95179
G1 X155.226 Y58.791 E2.99169
G1 X155.226 Y58.326 E3.00356
G1 X155.866 Y57.686 E3.02667
G1 X155.402 Y57.686 E3.03852
G1 X155.078 Y58.009 E3.0502
G1 E2.5502
G92 E0
G1 X155.078 Y58.009 Z.5 F6000
G1 X157.907 Y57.504
G1 Z.2
G1 E.5 F1800
G1 X160.553 Y54.857 E.59557
G1 X160.089 Y54.857 E.60742
G1 X158.055 Y56.891 E.68087
G1 X158.055 Y56.427 E.69272
G1 X159.624 Y54.857 E.74939
G1 X159.159 Y54.857 E.76126
G1 X158.055 Y55.962 E.80114
G1 X158.055 Y55.497 E.81301
G1 X158.695 Y54.857 E.83612
G1 X158.23 Y54.857 E.84799
G1 X157.907 Y55.181 E.85967
G1 E.35967
G92 E0
G1 X157.907 Y55.181 Z.5 F6000
G1 X160.735 Y54.675
G1 Z.2
G1 E.5 F1800
G1 X163.382 Y52.029 E.59557
G1 X162.917 Y52.029 E.60744
G1 X160.883 Y54.063 E.68089
G1 X160.883 Y53.598 E.69276
G1 X162.453 Y52.029 E.74943
G1 X161.988 Y52.029 E.7613
G1 X160.883 Y53.134 E.8012
G1 X160.883 Y52.669 E.81307
G1 X161.523 Y52.029 E.83618
G1 X161.059 Y52.029 E.84803
G1 X160.735 Y52.352 E.85971
G1 E.35971
G92 E0
G1 X160.735 Y52.352 Z.5 F5999
G1 X166.392 Y51.806 F6000
G1 Z.2
G1 E.5 F1800
G1 X168.998 Y49.2 E.5941
G1 X168.533 Y49.2 E.60597
G1 X166.54 Y51.193 E.67794
G1 X166.54 Y50.729 E.68979
G1 X168.069 Y49.2 E.745
G1 X167.604 Y49.2 E.75687
G1 X166.54 Y50.264 E.79529
G1 X166.54 Y49.8 E.80714
G1 X167.14 Y49.2 E.82881
G1 X166.675 Y49.2 E.84068
G1 X166.392 Y49.483 E.8509
G1 E.3509
G92 E0
G1 X166.392 Y49.483 Z.5 F6000
G1 X189.002 Y57.538
G1 Z.2
G1 E.5 F1800
G1 X175.026 Y71.515 E1.00469
G1 X175.026 Y71.05 E1.01656
G1 X188.39 Y57.686 E1.49914
G1 X187.925 Y57.686 E1.51101
G1 X175.026 Y70.585 E1.9768
G1 X175.026 Y70.121 E1.98865
G1 X187.461 Y57.686 E2.43768
G1 X186.996 Y57.686 E2.44955
G1 X175.026 Y69.656 E2.88179
G1 X175.026 Y69.191 E2.89366
G1 X186.531 Y57.686 E3.30911
G1 X186.34 Y57.686 E3.31399
G1 X186.34 Y57.413 E3.32096
G1 X175.026 Y68.727 E3.72951
G1 X175.026 Y68.262 E3.74138
M73 P5 R16
G1 X186.34 Y56.948 E4.14993
G1 X186.34 Y56.483 E4.1618
G1 X175.026 Y67.798 E4.57037
G1 X175.026 Y67.333 E4.58224
G1 X186.34 Y56.019 E4.99079
G1 X186.34 Y55.554 E5.00266
G1 X175.026 Y66.868 E5.41121
G1 X175.026 Y66.404 E5.42306
M73 P6 R16
G1 X186.34 Y55.09 E5.83161
G1 X186.34 Y54.857 E5.83756
G1 X186.108 Y54.857 E5.84348
G1 X174.793 Y66.171 E6.25205
G1 X174.329 Y66.171 E6.2639
G1 X185.643 Y54.857 E6.67245
G1 X185.178 Y54.857 E6.68432
G1 X173.864 Y66.171 E7.09287
G1 X173.4 Y66.171 E7.10472
G1 X184.714 Y54.857 E7.51327
G1 X184.249 Y54.857 E7.52514
G1 X172.935 Y66.171 E7.93369
G1 X172.47 Y66.171 E7.94556
G1 X183.784 Y54.857 E8.35411
G1 X183.511 Y54.857 E8.36108
G1 X183.511 Y54.666 E8.36596
G1 X172.006 Y66.171 E8.78141
G1 X171.541 Y66.171 E8.79328
G1 X183.511 Y54.201 E9.22552
G1 X183.511 Y53.736 E9.23739
G1 X171.076 Y66.171 E9.68642
G1 X170.612 Y66.171 E9.69827
G1 X183.511 Y53.272 E10.16406
G1 X183.511 Y52.807 E10.17593
G1 X170.147 Y66.171 E10.65851
G1 X169.683 Y66.171 E10.67036
G1 X183.511 Y52.343 E11.16969
G1 X183.511 Y52.029 E11.17771
G1 X183.361 Y52.029 E11.18154
G1 X155.226 Y80.163 E12.19748
G1 X155.226 Y80.314 E12.20134
G1 X155.54 Y80.314 E12.20936
G1 X169.369 Y66.485 E12.70873
G1 X169.369 Y66.95 E12.7206
G1 X156.004 Y80.314 E13.20319
G1 X156.469 Y80.314 E13.21506
G1 X169.369 Y67.415 E13.68086
G1 X169.369 Y67.879 E13.69271
M73 P7 R16
G1 X156.934 Y80.314 E14.14174
G1 X157.398 Y80.314 E14.15359
G1 X169.369 Y68.344 E14.58585
G1 X169.369 Y68.808 E14.5977
G1 X157.863 Y80.314 E15.01318
G1 X158.055 Y80.314 E15.01808
G1 X158.055 Y80.587 E15.02505
G1 X169.369 Y69.273 E15.4336
G1 X169.369 Y69.738 E15.44547
G1 X158.055 Y81.052 E15.85402
G1 X158.055 Y81.516 E15.86587
G1 X169.369 Y70.202 E16.27442
G1 X169.369 Y70.667 E16.28629
G1 X158.055 Y81.981 E16.69484
G1 X158.055 Y82.446 E16.70671
G1 X169.369 Y71.132 E17.11526
G1 X169.369 Y71.596 E17.12711
G1 X158.055 Y82.91 E17.53566
G1 X158.055 Y83.143 E17.54161
G1 X158.287 Y83.143 E17.54753
G1 X169.601 Y71.829 E17.95608
G1 X170.066 Y71.829 E17.96795
G1 X158.751 Y83.143 E18.37652
G1 X159.216 Y83.143 E18.38839
G1 X170.53 Y71.829 E18.79694
G1 X170.995 Y71.829 E18.80881
G1 X159.681 Y83.143 E19.21736
G1 X160.145 Y83.143 E19.22921
G1 X171.459 Y71.829 E19.63776
G1 X171.924 Y71.829 E19.64963
G1 X160.61 Y83.143 E20.05818
G1 X160.883 Y83.143 E20.06515
G1 X160.883 Y83.334 E20.07003
G1 X172.389 Y71.829 E20.4855
G1 X172.853 Y71.829 E20.49735
G1 X160.883 Y83.799 E20.92959
G1 X160.883 Y84.263 E20.94144
G1 X173.318 Y71.829 E21.39045
G1 X173.783 Y71.829 E21.40232
G1 X160.883 Y84.728 E21.86812
G1 X160.883 Y85.193 E21.87999
M73 P8 R16
G1 X174.247 Y71.829 E22.36257
G1 X174.712 Y71.829 E22.37444
G1 X160.883 Y85.657 E22.87379
G1 X160.883 Y85.971 E22.88181
G1 X161.034 Y85.971 E22.88567
G1 X189.169 Y57.836 E23.90163
G1 X189.169 Y58.301 E23.9135
G1 X161.498 Y85.971 E24.91269
G1 X161.963 Y85.971 E24.92456
G1 X189.169 Y58.766 E25.90696
G1 X189.169 Y59.23 E25.91881
G1 X162.428 Y85.971 E26.88443
G1 X162.892 Y85.971 E26.89628
G1 X189.169 Y59.695 E27.84513
G1 X189.169 Y60.16 E27.857
G1 X163.357 Y85.971 E28.78906
G1 X163.821 Y85.971 E28.80091
G1 X189.169 Y60.624 E29.71621
G1 X189.169 Y61.089 E29.72808
G1 X164.286 Y85.971 E30.62659
M73 P9 R16
G1 X164.751 Y85.971 E30.63846
G1 X189.169 Y61.553 E31.5202
G1 X189.169 Y62.018 E31.53207
G1 X165.215 Y85.971 E32.39704
G1 X165.68 Y85.971 E32.40891
G1 X189.169 Y62.483 E33.25708
G1 X189.169 Y62.947 E33.26893
G1 X166.145 Y85.971 E34.10033
G1 X166.54 Y85.971 E34.11042
G1 X166.54 Y86.04 E34.11218
G1 X189.238 Y63.343 E34.93179
G1 X189.702 Y63.343 E34.94364
G1 X166.54 Y86.505 E35.78002
G1 X166.54 Y86.97 E35.79189
G1 X190.167 Y63.343 E36.64507
G1 X190.631 Y63.343 E36.65692
G1 X166.54 Y87.434 E37.52685
G1 X166.54 Y87.899 E37.53872
G1 X191.096 Y63.343 E38.42544
G1 X191.561 Y63.343 E38.43731
M73 P10 R16
G1 X166.54 Y88.363 E39.34081
G1 X166.568 Y88.8 E39.35199
G1 X191.997 Y63.371 E40.27024
G1 X191.997 Y63.836 E40.28211
G1 X167.033 Y88.8 E41.18357
G1 X167.498 Y88.8 E41.19544
G1 X191.997 Y64.3 E42.08012
G1 X191.997 Y64.765 E42.09199
G1 X167.962 Y88.8 E42.9599
G1 X168.427 Y88.8 E42.97177
G1 X191.997 Y65.23 E43.82289
G1 X191.997 Y65.694 E43.83474
G1 X168.892 Y88.8 E44.66908
G1 X169.356 Y88.8 E44.68093
G1 X191.997 Y66.159 E45.4985
G1 X191.997 Y66.624 E45.51037
G1 X169.821 Y88.8 E46.31115
G1 X170.285 Y88.8 E46.323
M73 P11 R16
G1 X191.997 Y67.088 E47.10702
G1 X191.997 Y67.553 E47.11889
G1 X170.75 Y88.8 E47.88612
G1 X171.215 Y88.8 E47.89799
G1 X191.997 Y68.017 E48.64845
G1 X191.997 Y68.482 E48.66032
G1 X171.679 Y88.8 E49.39401
G1 X172.144 Y88.8 E49.40588
M73 P11 R15
G1 X191.997 Y68.947 E50.12278
G1 X191.997 Y69.411 E50.13463
G1 X172.609 Y88.8 E50.83475
G1 X173.073 Y88.8 E50.8466
G1 X191.997 Y69.876 E51.52995
G1 X191.997 Y70.341 E51.54182
G1 X173.538 Y88.8 E52.20838
G1 X174.002 Y88.8 E52.22023
G1 X191.997 Y70.805 E52.87003
G1 X191.997 Y71.27 E52.8819
G1 X174.319 Y88.948 E53.52026
G1 E53.02026
G92 E0
G1 X174.319 Y88.948 Z.5 F6000
G1 X177.572 Y88.948
G1 Z.2
G1 E.5 F1800
G1 X177.854 Y88.665 E.5102
G1 X177.854 Y88.2 E.52207
G1 X177.255 Y88.8 E.54372
G1 X176.79 Y88.8 E.55559
G1 X177.854 Y87.736 E.59401
G1 X177.854 Y87.271 E.60588
G1 X176.326 Y88.8 E.66107
G1 X175.861 Y88.8 E.67294
G1 X177.854 Y86.806 E.74493
G1 X177.854 Y86.342 E.75678
G1 X175.396 Y88.8 E.84554
G1 X174.932 Y88.8 E.85739
G1 X191.997 Y71.734 E1.47363
G1 X191.997 Y72.199 E1.4855
M73 P12 R15
G1 X189.539 Y74.657 E1.57426
G1 X190.004 Y74.657 E1.58613
G1 X191.997 Y72.664 E1.6581
G1 X191.997 Y73.128 E1.66995
G1 X190.468 Y74.657 E1.72516
G1 X190.933 Y74.657 E1.73703
G1 X191.997 Y73.593 E1.77545
G1 X191.997 Y74.058 E1.78732
G1 X191.398 Y74.657 E1.80895
G1 X191.862 Y74.657 E1.8208
G1 X192.145 Y74.374 E1.83102
G1 E1.33102
G92 E0
G1 X192.145 Y74.374 Z.5 F6000
G1 X189.316 Y74.88
G1 Z.2
G1 E.5 F1800
G1 X178.225 Y85.971 E.9005
G1 X178.689 Y85.971 E.91235
G1 X189.169 Y75.492 E1.29077
G1 X189.169 Y75.957 E1.30264
G1 X179.154 Y85.971 E1.66427
G1 X179.619 Y85.971 E1.67614
G1 X189.169 Y76.421 E2.02099
G1 X189.169 Y76.886 E2.03286
G1 X179.935 Y86.119 E2.36628
G1 E1.86628
G92 E0
G1 X179.935 Y86.119 Z.5 F6000
G1 X186.016 Y83.291
G1 Z.2
G1 E.5 F1800
G1 X186.34 Y82.967 E.5117
G1 X186.34 Y82.502 E.52357
G1 X185.7 Y83.143 E.5467
G1 X185.235 Y83.143 E.55857
G1 X186.34 Y82.038 E.59847
G1 X186.34 Y81.573 E.61034
G1 X184.77 Y83.143 E.66703
G1 X184.306 Y83.143 E.67888
G1 X186.34 Y81.108 E.75235
G1 X186.34 Y80.644 E.7642
G1 X183.693 Y83.291 E.85978
G1 E.35978
G92 E0
G1 X183.693 Y83.291 Z.5 F6000
G1 X183.188 Y86.119
G1 Z.2
G1 E.5 F1800
G1 X183.511 Y85.796 E.51166
G1 X183.511 Y85.331 E.52353
G1 X182.871 Y85.971 E.54664
G1 X182.406 Y85.971 E.55851
G1 X183.511 Y84.866 E.59841
G1 X183.511 Y84.402 E.61026
G1 X181.942 Y85.971 E.66692
G1 X181.477 Y85.971 E.67879
G1 X183.511 Y83.937 E.75224
G1 X183.511 Y83.472 E.76411
G1 X181.013 Y85.971 E.85433
G1 X180.548 Y85.971 E.8662
G1 X189.169 Y77.351 E1.17749
G1 X189.169 Y77.815 E1.18934
G1 X186.67 Y80.314 E1.27958
G1 X187.134 Y80.314 E1.29143
G1 X189.169 Y78.28 E1.3649
G1 X189.169 Y78.745 E1.37677
G1 X187.599 Y80.314 E1.43344
G1 X188.064 Y80.314 E1.44531
G1 X189.169 Y79.209 E1.48521
G1 X189.169 Y79.674 E1.49708
G1 X188.528 Y80.314 E1.52021
G1 X188.993 Y80.314 E1.53208
G1 X189.316 Y79.991 E1.54374
G1 E1.04374
G92 E0
G1 X189.316 Y79.991 Z.5 F5999
G92 E0
G1 X131.086 Y64.409 F6000
G1 Z.2
G1 E.5 F1800
;TYPE:Support material
;WIDTH:0.42
G1 X131.977 Y64.517 E.52814
G1 X132.967 Y64.853 E.56092
G1 X133.581 Y65.208 E.58316
G1 X134.283 Y65.801 E.61197
G1 X134.821 Y66.474 E.63899
G1 X135.224 Y67.226 E.66574
G1 X135.484 Y68.047 E.69274
G1 X135.587 Y68.97 E.72186
G1 X135.541 Y69.668 E.74379
G1 X135.268 Y70.685 E.77681
G1 X134.858 Y71.49 E.80514
G1 X134.23 Y72.252 E.8361
G1 X133.542 Y72.817 E.86401
G1 X132.761 Y73.234 E.89177
G1 X131.9 Y73.495 E.91998
G1 X130.927 Y73.591 E.95064
G1 X130.023 Y73.483 E.97919
G1 X129.033 Y73.147 E1.01197
G1 X128.419 Y72.792 E1.03421
G1 X127.717 Y72.199 E1.06302
G1 X127.179 Y71.526 E1.09004
G1 X126.776 Y70.774 E1.11679
G1 X126.516 Y69.953 E1.14379
G1 X126.413 Y69.03 E1.17291
G1 X126.459 Y68.332 E1.19484
G1 X126.732 Y67.315 E1.22786
G1 X127.142 Y66.51 E1.25619
G1 X127.77 Y65.748 E1.28715
G1 X128.458 Y65.183 E1.31506
G1 X129.239 Y64.766 E1.34282
G1 X130.091 Y64.507 E1.37074
G1 X131.029 Y64.411 E1.4003
G1 X131.029 Y64.411 F6000
G1 X135.19 Y70.403
G1 F1800
G1 X135.19 Y68.329 E1.46533
G1 X135.046 Y67.725 E1.4848
G1 X134.771 Y67.064 E1.50725
G1 X134.771 Y70.948 E1.62903
G1 X134.352 Y71.599 E1.6533
G1 X134.352 Y66.405 E1.81615
G1 X133.933 Y65.935 E1.83589
G1 X133.933 Y72.064 E2.02806
G1 X133.514 Y72.419 E2.04528
G1 X133.514 Y65.58 E2.25971
G1 X133.095 Y65.31 E2.27534
G1 X133.095 Y72.688 E2.50667
G1 X132.676 Y72.899 E2.52138
G1 X132.676 Y65.099 E2.76594
G1 X132.496 Y65.023 E2.77207
G1 X132.257 Y64.944 E2.77996
G1 X132.257 Y73.057 E3.03434
G1 X131.838 Y73.161 E3.04788
G1 X131.838 Y64.837 E3.30887
G1 X131.419 Y64.778 E3.32214
