; generated by PrusaSlicer 2.9.0 on 2025-07-07 at 21:18:21 UTC

; 

; external perimeters extrusion width = 0.42mm
; perimeters extrusion width = 0.42mm
; infill extrusion width = 0.42mm
; solid infill extrusion width = 0.42mm
; top infill extrusion width = 0.42mm
; first layer extrusion width = 0.36mm

M73 P0 R4
M190 S60 ; set bed temperature and wait for it to be reached
M104 S215 ; set temperature
;TYPE:Custom
G28 ; home all axes
G1 Z5 F5000 ; lift nozzle
M109 S215 ; set temperature and wait for it to be reached
G21 ; set units to millimeters
G90 ; use absolute coordinates
M82 ; use absolute distances for extrusion
G92 E0
; Filament gcode
M107
;LAYER_CHANGE
;Z:0.1
;HEIGHT:0.1
G1 E-.5 F1800
G1 Z.4 F6000
G1 X157.409 Y60.623
G1 Z.1
G1 E.00001 F1800
M201 X2000 Y2000
;TYPE:Skirt/Brim
;WIDTH:0.36
G1 X157.451 Y60.513 E.00149
G1 X158.721 Y58.02 E.03693
G1 X160.169 Y55.834 E.07014
M73 P1 R4
G1 X161.642 Y54.074 E.09921
G1 X162.629 Y53.063 E.11711
G1 X164.116 Y51.747 E.14226
G1 X166.263 Y50.219 E.17564
G1 X169.415 Y48.549 E.22083
G1 X172.014 Y47.598 E.25589
G1 X174.453 Y47.009 E.28767
G1 X176.7 Y46.709 E.31639
G1 X178.966 Y46.631 E.34511
G1 X181.228 Y46.775 E.37382
G1 X183.506 Y47.15 E.40306
G1 X186.002 Y47.839 E.43586
G1 X187.845 Y48.549 E.46088
G1 X190.338 Y49.819 E.49632
G1 X192.524 Y51.267 E.52953
G1 X194.284 Y52.74 E.5586
G1 X195.295 Y53.727 E.5765
G1 X196.611 Y55.214 E.60165
G1 X198.139 Y57.361 E.63503
G1 X199.809 Y60.513 E.68022
G1 X200.76 Y63.112 E.71528
G1 X201.349 Y65.551 E.74706
G1 X201.649 Y67.798 E.77578
G1 X201.727 Y70.064 E.8045
G1 X201.583 Y72.326 E.83321
G1 X201.207 Y74.604 E.86246
G1 X200.518 Y77.1 E.89526
G1 X199.809 Y78.942 E.92026
G1 X198.539 Y81.436 E.95571
G1 X197.091 Y83.622 E.98892
G1 X195.618 Y85.382 E1.01799
G1 X194.631 Y86.393 E1.03589
G1 X193.144 Y87.709 E1.06104
G1 X190.997 Y89.237 E1.09442
G1 X187.845 Y90.907 E1.13961
G1 X185.246 Y91.858 E1.17467
M73 P2 R4
G1 X182.807 Y92.447 E1.20645
G1 X180.56 Y92.747 E1.23517
G1 X178.294 Y92.825 E1.26389
G1 X176.032 Y92.681 E1.2926
G1 X173.754 Y92.305 E1.32185
G1 X171.258 Y91.616 E1.35465
G1 X169.415 Y90.907 E1.37966
G1 X166.922 Y89.637 E1.4151
G1 X164.736 Y88.189 E1.44831
G1 X162.976 Y86.716 E1.47738
G1 X161.965 Y85.729 E1.49528
G1 X160.649 Y84.242 E1.52043
G1 X159.121 Y82.095 E1.55381
G1 X157.451 Y78.942 E1.59901
G1 X156.5 Y76.344 E1.63406
G1 X155.911 Y73.905 E1.66584
G1 X155.611 Y71.658 E1.69456
G1 X155.533 Y69.392 E1.72328
G1 X155.677 Y67.13 E1.75199
G1 X156.053 Y64.851 E1.78125
G1 X156.742 Y62.356 E1.81404
G1 X157.387 Y60.679 E1.8368
M202 X2000 Y2000
G1 X157.387 Y60.679 F6000
G1 X157.703 Y60.801
G1 F1800
G1 X157.767 Y60.635 E1.83905
G1 X159.02 Y58.179 E1.87398
G1 X160.448 Y56.025 E1.90672
G1 X161.897 Y54.296 E1.9353
G1 X162.868 Y53.302 E1.9529
G1 X164.339 Y52.002 E1.97777
G1 X166.454 Y50.498 E2.01064
G1 X169.537 Y48.865 E2.05483
G1 X172.098 Y47.925 E2.08939
G1 X174.503 Y47.344 E2.12073
G1 X176.717 Y47.047 E2.14903
G1 X179.018 Y46.972 E2.17819
G1 X181.179 Y47.11 E2.20562
M73 P3 R4
G1 X183.422 Y47.478 E2.23441
G1 X185.88 Y48.155 E2.26671
G1 X187.723 Y48.865 E2.29173
G1 X190.179 Y50.117 E2.32665
G1 X192.333 Y51.546 E2.35939
G1 X194.062 Y52.995 E2.38797
G1 X195.056 Y53.966 E2.40557
G1 X196.356 Y55.437 E2.43044
G1 X197.86 Y57.552 E2.46331
G1 X199.493 Y60.635 E2.5075
G1 X200.432 Y63.196 E2.54205
G1 X201.014 Y65.601 E2.57339
G1 X201.311 Y67.815 E2.60169
G1 X201.389 Y70.047 E2.62998
G1 X201.248 Y72.276 E2.65827
G1 X200.88 Y74.52 E2.68708
G1 X200.203 Y76.978 E2.71938
G1 X199.493 Y78.821 E2.7444
G1 X198.241 Y81.277 E2.77932
G1 X196.812 Y83.431 E2.81206
G1 X195.363 Y85.16 E2.84064
G1 X194.392 Y86.153 E2.85823
G1 X192.921 Y87.454 E2.88311
G1 X190.806 Y88.958 E2.91598
G1 X187.723 Y90.591 E2.96017
G1 X185.162 Y91.53 E2.99472
G1 X182.757 Y92.112 E3.02606
G1 X180.543 Y92.409 E3.05436
G1 X178.311 Y92.487 E3.08265
G1 X176.081 Y92.346 E3.11095
G1 X173.838 Y91.977 E3.13974
G1 X171.38 Y91.3 E3.17204
G1 X169.537 Y90.591 E3.19705
G1 X167.081 Y89.338 E3.23198
G1 X164.927 Y87.909 E3.26472
G1 X163.198 Y86.461 E3.29329
M73 P4 R4
G1 X162.204 Y85.489 E3.3109
G1 X160.904 Y84.019 E3.33576
G1 X159.4 Y81.904 E3.36863
G1 X157.767 Y78.821 E3.41282
G1 X156.828 Y76.26 E3.44737
G1 X156.246 Y73.855 E3.47871
G1 X155.949 Y71.641 E3.50701
G1 X155.871 Y69.409 E3.5353
G1 X156.012 Y67.179 E3.5636
G1 X156.38 Y64.936 E3.59239
G1 X157.057 Y62.478 E3.62469
G1 X157.682 Y60.857 E3.6467
G1 X157.682 Y60.857 F6000
G1 X157.998 Y60.978
G1 F1800
G1 X158.083 Y60.757 E3.6497
G1 X159.318 Y58.338 E3.6841
G1 X160.728 Y56.217 E3.71636
G1 X162.152 Y54.518 E3.74444
G1 X163.108 Y53.542 E3.76175
G1 X164.561 Y52.258 E3.78631
G1 X166.646 Y50.777 E3.81871
G1 X169.659 Y49.181 E3.8619
G1 X172.183 Y48.253 E3.89596
G1 X174.553 Y47.679 E3.92685
G1 X176.734 Y47.385 E3.95473
G1 X179.002 Y47.31 E3.98348
G1 X181.129 Y47.445 E4.01048
G1 X183.338 Y47.806 E4.03883
G1 X185.759 Y48.471 E4.07063
G1 X187.601 Y49.181 E4.09564
G1 X190.02 Y50.416 E4.13004
G1 X192.141 Y51.825 E4.1623
G1 X193.84 Y53.25 E4.19039
G1 X194.816 Y54.206 E4.2077
G1 X196.1 Y55.659 E4.23226
G1 X197.581 Y57.744 E4.26466
G1 X199.177 Y60.757 E4.30785
G1 X200.105 Y63.281 E4.34191
M73 P5 R4
G1 X200.679 Y65.651 E4.3728
G1 X200.973 Y67.832 E4.40068
G1 X201.051 Y70.031 E4.42855
G1 X200.913 Y72.227 E4.45642
G1 X200.552 Y74.436 E4.48477
G1 X199.887 Y76.857 E4.51657
G1 X199.177 Y78.699 E4.54158
G1 X197.942 Y81.118 E4.57598
G1 X196.532 Y83.239 E4.60824
G1 X195.108 Y84.938 E4.63632
G1 X194.152 Y85.914 E4.65363
G1 X192.699 Y87.198 E4.67819
G1 X190.614 Y88.679 E4.71059
G1 X187.601 Y90.275 E4.75378
G1 X185.077 Y91.202 E4.78784
G1 X182.707 Y91.777 E4.81873
G1 X180.526 Y92.071 E4.84661
G1 X178.327 Y92.149 E4.87448
G1 X176.131 Y92.011 E4.90235
G1 X173.922 Y91.65 E4.9307
G1 X171.501 Y90.985 E4.9625
G1 X169.659 Y90.275 E4.98751
G1 X167.24 Y89.04 E5.02191
G1 X165.119 Y87.63 E5.05417
G1 X163.42 Y86.205 E5.08226
G1 X162.444 Y85.25 E5.09956
G1 X161.16 Y83.797 E5.12412
G1 X159.679 Y81.712 E5.15652
G1 X158.083 Y78.699 E5.19971
G1 X157.155 Y76.175 E5.23377
G1 X156.581 Y73.805 E5.26466
G1 X156.287 Y71.624 E5.29254
G1 X156.209 Y69.425 E5.32041
G1 X156.347 Y67.229 E5.34828
G1 X156.708 Y65.02 E5.37663
G1 X157.373 Y62.599 E5.40843
M73 P6 R4
G1 X157.976 Y61.034 E5.42968
G1 E4.92968
G92 E0
G1 X157.976 Y61.034 Z.4 F6000
G92 E0
G1 X171.449 Y66.712
G1 Z.1
G1 E.5 F1800
;TYPE:External perimeter
;WIDTH:0.329602
G1 X171.619 Y66.309 E.50504
;WIDTH:0.32971
G1 X172.036 Y65.559 E.51494
;WIDTH:0.330176
G1 X172.337 Y65.064 E.52163
;WIDTH:0.331226
G1 X172.813 Y64.476 E.5304
;WIDTH:0.375401
G1 X172.891 Y64.366 E.53219
;WIDTH:0.419575
G1 F1582.167
G1 X172.97 Y64.256 E.53421
;WIDTH:0.463749
G1 F1410.621
G1 X173.048 Y64.146 E.53644
G1 F1375.217
G1 X173.348 Y63.913 E.54273
;WIDTH:0.419575
G1 F1474.594
G1 X173.648 Y63.68 E.54839
;WIDTH:0.375401
G1 F1603.443
G1 X173.948 Y63.447 E.55342
;WIDTH:0.331226
G1 F1800
G1 X174.44 Y63.146 E.56011
;WIDTH:0.330178
G1 X175.196 Y62.724 E.57011
;WIDTH:0.32971
G1 X175.999 Y62.385 E.58016
G1 X176.837 Y62.136 E.59024
G1 X177.698 Y61.983 E.60033
G1 X178.582 Y61.93 E.61054
;WIDTH:0.329601
G1 X179.544 Y61.981 E.62165
G1 X180.406 Y62.132 E.63174
G1 X181.245 Y62.379 E.64182
G1 X182.049 Y62.717 E.65188
;WIDTH:0.32971
G1 X182.799 Y63.134 E.66178
;WIDTH:0.330177
G1 X183.294 Y63.435 E.66847
;WIDTH:0.331226
G1 X183.882 Y63.911 E.67724
;WIDTH:0.375401
G1 X183.992 Y63.989 E.67903
;WIDTH:0.419576
G1 F1582.218
G1 X184.102 Y64.068 E.68105
;WIDTH:0.463751
G1 F1410.685
G1 X184.212 Y64.146 E.68328
G1 F1375.172
G1 X184.445 Y64.446 E.68957
;WIDTH:0.419576
G1 F1474.611
G1 X184.678 Y64.746 E.69523
;WIDTH:0.375401
G1 F1603.435
G1 X184.911 Y65.046 E.70026
;WIDTH:0.331226
G1 F1800
G1 X185.212 Y65.538 E.70695
;WIDTH:0.330178
G1 X185.634 Y66.294 E.71695
;WIDTH:0.32971
G1 X185.973 Y67.097 E.727
G1 X186.222 Y67.935 E.73708
G1 X186.374 Y68.795 E.74715
G1 X186.43 Y69.719 E.75783
;WIDTH:0.329601
G1 X186.377 Y70.643 E.7685
G1 X186.226 Y71.504 E.77858
G1 X185.979 Y72.343 E.78866
G1 X185.641 Y73.147 E.79872
;WIDTH:0.32971
G1 X185.224 Y73.897 E.80862
;WIDTH:0.330176
G1 X184.923 Y74.392 E.81531
;WIDTH:0.331225
G1 X184.447 Y74.98 E.82408
;WIDTH:0.3754
G1 X184.369 Y75.09 E.82587
;WIDTH:0.419575
G1 F1582.304
G1 X184.29 Y75.2 E.82789
;WIDTH:0.46375
G1 F1410.586
G1 X184.212 Y75.31 E.83012
G1 F1375.239
G1 X183.912 Y75.543 E.83641
;WIDTH:0.419575
G1 F1474.685
G1 X183.612 Y75.776 E.84207
;WIDTH:0.3754
G1 F1603.484
G1 X183.312 Y76.009 E.8471
;WIDTH:0.331225
G1 F1800
G1 X182.82 Y76.31 E.85379
;WIDTH:0.330178
G1 X182.064 Y76.732 E.86379
;WIDTH:0.329709
G1 X181.261 Y77.071 E.87384
G1 X180.423 Y77.319 E.88392
G1 X179.562 Y77.472 E.89401
G1 X178.639 Y77.528 E.90468
;WIDTH:0.329602
G1 X177.715 Y77.474 E.91535
G1 X176.854 Y77.323 E.92543
G1 X176.015 Y77.077 E.93551
G1 X175.211 Y76.739 E.94557
;WIDTH:0.329921
G1 F1774.935
G1 X175.203 Y76.736 E.94567
G1 F1800
G1 X174.461 Y76.322 E.95548
;WIDTH:0.330178
G1 X173.966 Y76.02 E.96218
;WIDTH:0.331227
G1 X173.378 Y75.545 E.97094
;WIDTH:0.375402
G1 X173.268 Y75.467 E.97273
;WIDTH:0.419576
G1 F1582.235
G1 X173.158 Y75.388 E.97475
;WIDTH:0.46375
G1 F1410.701
G1 X173.048 Y75.31 E.97698
G1 F1375.188
G1 X172.815 Y75.01 E.98327
;WIDTH:0.419576
G1 F1474.667
G1 X172.582 Y74.71 E.98893
;WIDTH:0.375401
G1 F1603.437
G1 X172.349 Y74.41 E.99396
;WIDTH:0.331226
G1 F1800
G1 X172.048 Y73.918 E1.00065
;WIDTH:0.33018
G1 X171.626 Y73.162 E1.01065
;WIDTH:0.329711
G1 X171.287 Y72.359 E1.0207
G1 X171.038 Y71.521 E1.03078
G1 X170.886 Y70.66 E1.04086
G1 X170.83 Y69.737 E1.05153
;WIDTH:0.329602
G1 X170.883 Y68.813 E1.0622
G1 X171.034 Y67.952 E1.07228
G1 X171.281 Y67.113 E1.08236
G1 X171.426 Y66.768 E1.08667
G1 X171.581 Y66.399 F6000
G1 E.58667 F1800
G92 E0
G1 Z.4 F6000
G1 X173.055 Y75.717
G1 Z.1
G1 E.5 F1800
;WIDTH:0.419576
G1 F1410.422
G1 X173.112 Y75.748 E.50097
;WIDTH:0.375402
G1 F1581.54
G1 X173.183 Y75.785 E.50203
;WIDTH:0.331248
G1 F1800
G1 X173.765 Y76.259 E.51073
G1 X174.28 Y76.574 E.51773
;WIDTH:0.330177
G1 X175.046 Y77.001 E.52786
;WIDTH:0.32971
G1 X175.879 Y77.355 E.5383
G1 X176.75 Y77.615 E.54878
G1 X177.644 Y77.776 E.55926
G1 X178.603 Y77.836 E.57034
;WIDTH:0.329602
G1 X179.563 Y77.782 E.58143
G1 X180.46 Y77.627 E.59193
M73 P7 R4
G1 X181.332 Y77.373 E.6024
G1 X182.169 Y77.023 E.61286
;WIDTH:0.32971
G1 X182.949 Y76.591 E.62314
;WIDTH:0.330178
G1 X183.455 Y76.284 E.62998
;WIDTH:0.331227
G1 X184.077 Y75.785 E.63922
;WIDTH:0.375402
G1 X184.148 Y75.748 E.64028
;WIDTH:0.419576
G1 X184.218 Y75.71 E.64147
;WIDTH:0.46375
G1 F1750.794
G1 X184.288 Y75.672 E.64279
G1 F1742.359
G1 X184.352 Y75.736 E.64429
;WIDTH:0.44898
G1 F1715.378
G1 X186.783 Y78.174 E.69937
G1 F1461.514
G1 X189.213 Y80.613 E.75444
G1 F1453.905
G1 X189.246 Y80.706 E.75602
;WIDTH:0.408535
G1 F1584.912
G1 X189.172 Y80.891 E.75891
;WIDTH:0.359999
G1 F1800
G1 X188.083 Y81.838 E.77719
G1 X186.657 Y82.817 E.7991
G1 X184.999 Y83.699 E.82289
G1 X183.278 Y84.362 E.84625
G1 X181.635 Y84.785 E.86774
G1 X180.127 Y85.009 E.88705
G1 X178.622 Y85.082 E.90614
G1 X177.117 Y85.007 E.92523
G1 X175.625 Y84.785 E.94434
G1 X173.982 Y84.362 E.96583
G1 X172.261 Y83.699 E.98919
G1 X170.603 Y82.817 E1.01298
G1 X169.177 Y81.838 E1.03489
G1 X168.085 Y80.888 E1.05322
;WIDTH:0.408535
G1 X168.014 Y80.706 E1.05605
;WIDTH:0.44898
G1 X168.047 Y80.613 E1.05763
G1 F1772.991
G1 X170.478 Y78.174 E1.1127
G1 F1691.963
G1 X172.908 Y75.736 E1.16778
;WIDTH:0.46375
G1 F1628.089
G1 X172.972 Y75.672 E1.16928
G1 F1631.59
G1 X173.002 Y75.688 E1.16984
G1 X173.332 Y75.913 F6000
G1 X172.641 Y75.303
;WIDTH:0.419576
G1 F1800
G1 X172.648 Y75.316 E1.17006
;WIDTH:0.46375
G1 F1751.019
G1 X172.686 Y75.386 E1.17138
G1 F1742.183
G1 X172.622 Y75.45 E1.17288
;WIDTH:0.44898
G1 F1715.382
G1 X170.184 Y77.88 E1.22796
G1 F1461.526
G1 X167.745 Y80.311 E1.28303
G1 F1453.915
G1 X167.652 Y80.344 E1.28461
;WIDTH:0.408535
G1 F1584.923
G1 X167.467 Y80.27 E1.2875
;WIDTH:0.359999
G1 F1800
G1 X166.52 Y79.181 E1.30578
G1 X165.541 Y77.755 E1.32769
G1 X164.659 Y76.097 E1.35148
G1 X163.996 Y74.376 E1.37484
G1 X163.573 Y72.733 E1.39633
G1 X163.35 Y71.241 E1.41544
G1 X163.276 Y69.736 E1.43453
G1 X163.35 Y68.215 E1.45382
G1 X163.573 Y66.723 E1.47293
G1 X163.996 Y65.08 E1.49442
G1 X164.659 Y63.359 E1.51778
G1 X165.541 Y61.701 E1.54157
G1 X166.52 Y60.275 E1.56348
G1 X167.467 Y59.186 E1.58176
;WIDTH:0.399656
G1 X167.651 Y59.116 E1.58455
;WIDTH:0.448981
G1 X167.745 Y59.145 E1.58612
G1 F1687.235
G1 X170.184 Y61.576 E1.6412
G1 F1348.939
G1 X172.622 Y64.006 E1.69627
;WIDTH:0.463749
G1 F1295.863
M73 P8 R4
G1 X172.686 Y64.07 E1.69777
G1 F1283.9
G1 X172.648 Y64.14 E1.69909
;WIDTH:0.419575
G1 F1412.231
G1 X172.61 Y64.21 E1.70028
;WIDTH:0.375401
G1 F1581.54
G1 X172.573 Y64.281 E1.70134
;WIDTH:0.331248
G1 F1800
G1 X172.099 Y64.863 E1.71004
G1 X171.784 Y65.377 E1.71703
;WIDTH:0.330179
G1 F1643.797
G1 X171.783 Y65.38 E1.71707
G1 F1800
G1 X171.357 Y66.144 E1.72717
;WIDTH:0.32971
G1 X171.003 Y66.977 E1.73761
G1 X170.743 Y67.848 E1.74809
G1 X170.582 Y68.742 E1.75857
G1 X170.522 Y69.701 E1.76965
;WIDTH:0.329602
G1 X170.576 Y70.661 E1.78074
G1 X170.731 Y71.558 E1.79124
G1 X170.985 Y72.43 E1.80171
G1 X171.335 Y73.266 E1.81216
;WIDTH:0.329711
G1 X171.767 Y74.047 E1.82245
;WIDTH:0.330177
G1 X172.074 Y74.553 E1.82929
;WIDTH:0.331227
G1 X172.573 Y75.175 E1.83853
;WIDTH:0.375402
G1 X172.61 Y75.245 E1.83958
;WIDTH:0.419576
G1 X172.613 Y75.25 E1.83967
G1 X172.461 Y75.621 F6000
G1 E1.33967 F1800
G92 E0
G1 Z.4 F6000
G1 X173.055 Y63.739
G1 Z.1
G1 E.5 F1800
;WIDTH:0.419576
G1 X173.042 Y63.746 E.50022
;WIDTH:0.463749
G1 F1751.085
G1 X172.972 Y63.784 E.50154
G1 F1742.025
G1 X172.908 Y63.72 E.50304
;WIDTH:0.448981
G1 F1710.298
G1 X170.478 Y61.282 E.55812
G1 F1441.193
G1 X168.047 Y58.843 E.61319
G1 F1436.271
G1 X168.038 Y58.766 E.61443
;WIDTH:0.40449
G1 F1591.479
G1 X168.03 Y58.689 E.61554
;WIDTH:0.359999
G1 F1800
G1 X168.088 Y58.565 E.61727
G1 X169.177 Y57.618 E.63555
G1 X170.619 Y56.629 E.6577
G1 X172.243 Y55.765 E.681
G1 X174.001 Y55.088 E.70486
G1 X175.625 Y54.67 E.7261
G1 X177.117 Y54.448 E.74521
G1 X178.558 Y54.377 E.76349
G1 X180.127 Y54.447 E.78338
G1 X181.617 Y54.667 E.80246
G1 X183.278 Y55.094 E.82418
G1 X185.017 Y55.765 E.84779
G1 X186.657 Y56.639 E.87133
G1 X188.083 Y57.618 E.89324
G1 X189.172 Y58.565 E.91152
;WIDTH:0.399645
G1 X189.242 Y58.749 E.91431
;WIDTH:0.448957
G1 X189.213 Y58.843 E.91588
G1 F1687.159
G1 X186.783 Y61.282 E.97096
G1 F1348.635
G1 X184.352 Y63.72 E1.02603
;WIDTH:0.463751
G1 F1295.53
G1 X184.288 Y63.784 E1.02753
G1 F1283.436
G1 X184.218 Y63.746 E1.02885
;WIDTH:0.419576
G1 F1411.907
G1 X184.148 Y63.708 E1.03004
;WIDTH:0.375401
G1 F1575.441
G1 X184.077 Y63.67 E1.03111
;WIDTH:0.331248
G1 F1800
G1 X183.495 Y63.197 E1.0398
G1 X182.981 Y62.882 E1.04679
;WIDTH:0.330176
G1 X182.214 Y62.455 E1.05693
;WIDTH:0.32971
G1 X181.381 Y62.101 E1.06737
G1 X180.51 Y61.841 E1.07785
G1 X179.616 Y61.68 E1.08833
;WIDTH:0.331864
G1 X178.639 Y61.62 E1.0997
G1 X177.697 Y61.674 E1.11066
;WIDTH:0.329666
G1 X176.8 Y61.829 E1.12116
G1 X175.928 Y62.083 E1.13163
G1 X175.092 Y62.433 E1.14208
G1 X174.311 Y62.864 E1.15237
;WIDTH:0.330177
G1 X173.805 Y63.172 E1.15921
;WIDTH:0.331228
G1 X173.183 Y63.67 E1.16845
;WIDTH:0.375402
G1 X173.112 Y63.708 E1.16952
;WIDTH:0.419576
G1 X173.108 Y63.711 E1.16959
G1 X172.737 Y63.559 F6000
G1 E.66959 F1800
G92 E0
G1 Z.4 F6000
G1 X184.619 Y64.153
G1 Z.1
M73 P9 R4
G1 E.5 F1800
;WIDTH:0.419577
G1 X184.612 Y64.14 E.50022
;WIDTH:0.463751
G1 F1750.86
G1 X184.574 Y64.07 E.50154
G1 F1742.08
G1 X184.638 Y64.006 E.50304
;WIDTH:0.448957
G1 F1710.311
G1 X187.077 Y61.576 E.55812
G1 F1441.245
G1 X189.515 Y59.145 E.61319
G1 F1436.248
G1 X189.592 Y59.136 E.61443
;WIDTH:0.404478
G1 F1591.791
G1 X189.669 Y59.128 E.61554
;WIDTH:0.359999
G1 F1800
G1 X189.793 Y59.186 E.61727
G1 X190.74 Y60.275 E.63555
G1 X191.729 Y61.717 E.6577
G1 X192.601 Y63.359 E.68125
G1 X193.264 Y65.08 E.70461
G1 X193.687 Y66.723 E.7261
G1 X193.91 Y68.215 E.74521
G1 X193.984 Y69.72 E.7643
G1 X193.91 Y71.241 E.78359
G1 X193.687 Y72.733 E.8027
G1 X193.264 Y74.376 E.82419
G1 X192.601 Y76.097 E.84755
G1 X191.719 Y77.755 E.87134
G1 X190.74 Y79.181 E.89325
