; generated by PrusaSlicer 2.9.0 on 2025-07-07 at 22:48:42 UTC

; 

; external perimeters extrusion width = 0.42mm
; perimeters extrusion width = 0.42mm
; infill extrusion width = 0.42mm
; solid infill extrusion width = 0.42mm
; top infill extrusion width = 0.42mm
; first layer extrusion width = 0.36mm

M73 P0 R22
M190 S60 ; set bed temperature and wait for it to be reached
M104 S215 ; set temperature
;TYPE:Custom
G28 ; home all axes
G1 Z5 F5000 ; lift nozzle
M109 S215 ; set temperature and wait for it to be reached
G21 ; set units to millimeters
G90 ; use absolute coordinates
M82 ; use absolute distances for extrusion
G92 E0
; Filament gcode
M107
;LAYER_CHANGE
;Z:0.1
;HEIGHT:0.1
G1 E-.5 F1800
G1 Z.4 F6000
G1 X107.404 Y60.048
G1 Z.1
G1 E.00001 F1800
M201 X2000 Y2000
;TYPE:Skirt/Brim
;WIDTH:0.36
G1 X108.769 Y58.097 E.03016
G1 X120.097 Y46.769 E.23309
G1 X122.003 Y45.425 E.26263
G1 X124.298 Y44.794 E.29278
G1 X129.31 Y44.323 E.35655
G1 X132.69 Y44.323 E.39937
G1 X137.702 Y44.794 E.46314
G1 X139.952 Y45.404 E.49267
G1 X141.903 Y46.769 E.52283
G1 X153.231 Y58.097 E.72576
G1 X154.575 Y60.003 E.7553
G1 X155.206 Y62.298 E.78545
G1 X155.707 Y67.95 E.85733
G1 X155.677 Y70.69 E.89204
G1 X155.206 Y75.702 E.95581
G1 X154.596 Y77.952 E.98534
G1 X153.231 Y79.903 E1.0155
G1 X141.903 Y91.231 E1.21843
G1 X139.997 Y92.575 E1.24797
G1 X137.702 Y93.206 E1.27812
G1 X132.05 Y93.707 E1.35
G1 X129.31 Y93.677 E1.38471
G1 X124.298 Y93.206 E1.44848
G1 X122.048 Y92.596 E1.47801
G1 X120.097 Y91.231 E1.50817
G1 X108.769 Y79.903 E1.7111
G1 X107.425 Y77.997 E1.74064
G1 X106.794 Y75.702 E1.77079
G1 X106.293 Y70.05 E1.84267
G1 X106.323 Y67.31 E1.87738
G1 X106.794 Y62.298 E1.94115
G1 X107.389 Y60.106 E1.96992
M202 X2000 Y2000
G1 X107.389 Y60.106 F6000
G1 X107.72 Y60.197
G1 F1800
G1 X107.736 Y60.139 E1.97068
G1 X109.009 Y58.337 E1.99863
G1 X120.337 Y47.009 E2.20156
G1 X122.2 Y45.707 E2.23035
G1 X124.33 Y45.131 E2.2583
G1 X129.342 Y44.661 E2.32207
G1 X132.658 Y44.66 E2.36407
G1 X137.67 Y45.131 E2.42784
G1 X139.861 Y45.736 E2.45663
G1 X141.663 Y47.009 E2.48458
G1 X152.991 Y58.337 E2.68751
G1 X154.293 Y60.2 E2.7163
G1 X154.869 Y62.33 E2.74425
G1 X155.368 Y67.95 E2.81572
G1 X155.34 Y70.658 E2.85003
G1 X154.869 Y75.67 E2.9138
G1 X154.264 Y77.861 E2.94259
G1 X152.991 Y79.663 E2.97054
G1 X141.663 Y90.991 E3.17347
G1 X139.8 Y92.293 E3.20226
G1 X137.67 Y92.869 E3.23021
G1 X132.05 Y93.368 E3.30168
G1 X129.342 Y93.34 E3.33599
G1 X124.33 Y92.869 E3.39976
G1 X122.139 Y92.264 E3.42855
G1 X120.337 Y90.991 E3.4565
G1 X109.009 Y79.663 E3.65943
G1 X107.707 Y77.8 E3.68822
G1 X107.131 Y75.67 E3.71617
G1 X106.632 Y70.05 E3.78764
G1 X106.66 Y67.342 E3.82195
G1 X107.131 Y62.33 E3.88572
G1 X107.704 Y60.255 E3.91299
G1 X107.704 Y60.255 F6000
G1 X108.034 Y60.348
G1 F1800
G1 X108.067 Y60.232 E3.91452
G1 X109.248 Y58.576 E3.94029
G1 X120.576 Y47.248 E4.14322
G1 X122.396 Y45.989 E4.17125
G1 X124.362 Y45.468 E4.19701
G1 X129.373 Y44.998 E4.26076
G1 X132.627 Y44.998 E4.30198
M73 P1 R22
G1 X137.638 Y45.468 E4.36573
G1 X139.768 Y46.067 E4.39376
G1 X141.424 Y47.248 E4.41953
G1 X152.752 Y58.576 E4.62246
G1 X154.011 Y60.396 E4.65049
G1 X154.532 Y62.362 E4.67625
G1 X155.029 Y67.95 E4.74731
G1 X155.002 Y70.627 E4.78122
G1 X154.532 Y75.638 E4.84497
G1 X153.933 Y77.768 E4.873
G1 X152.752 Y79.424 E4.89877
G1 X141.424 Y90.752 E5.1017
G1 X139.604 Y92.011 E5.12973
G1 X137.638 Y92.532 E5.15549
G1 X132.05 Y93.029 E5.22655
G1 X129.373 Y93.002 E5.26046
G1 X124.362 Y92.532 E5.32421
G1 X122.232 Y91.933 E5.35224
G1 X120.576 Y90.752 E5.37801
G1 X109.248 Y79.424 E5.58094
G1 X107.989 Y77.604 E5.60897
G1 X107.468 Y75.638 E5.63473
G1 X106.971 Y70.05 E5.70579
G1 X106.998 Y67.373 E5.7397
G1 X107.468 Y62.362 E5.80345
G1 X108.018 Y60.406 E5.82919
G1 E5.32919
G92 E0
G1 X108.018 Y60.406 Z.4 F6000
G92 E0
G1 X133.15 Y64.917
G1 Z.1
G1 E.5 F1800
;TYPE:Perimeter
;WIDTH:0.359999
G1 X133.371 Y64.747 E.50353
G1 X133.739 Y64.663 E.50831
G1 X135.261 Y64.663 E.52759
G1 X135.549 Y64.713 E.53129
G1 X135.827 Y64.881 E.5354
G1 X136.055 Y65.216 E.54053
G1 X136.107 Y65.509 E.5443
G1 X136.107 Y72.491 E.63274
G1 X136.055 Y72.784 E.63651
G1 X135.827 Y73.119 E.64164
G1 X135.549 Y73.287 E.64575
G1 X135.261 Y73.337 E.64945
G1 X133.739 Y73.337 E.66873
G1 X133.371 Y73.253 E.67351
G1 X133.098 Y73.043 E.67787
G1 X132.949 Y72.794 E.68155
G1 X132.893 Y72.491 E.68545
G1 X132.893 Y65.509 E.77389
G1 F1768.542
G1 X132.949 Y65.206 E.77779
G1 F1724.634
G1 X133.098 Y64.957 E.78147
G1 X133.102 Y64.954 E.78153
G1 X133.102 Y64.954 F6000
G1 X133.386 Y65.154
G1 F1800
G1 X133.518 Y65.052 E.78364
G1 X133.739 Y65.001 E.78651
G1 X135.261 Y65.001 E.80579
G1 X135.545 Y65.089 E.80956
G1 X135.669 Y65.207 E.81173
G1 X135.737 Y65.333 E.81354
G1 X135.769 Y65.509 E.81581
G1 X135.769 Y72.491 E.90425
G1 X135.737 Y72.667 E.90652
G1 X135.601 Y72.868 E.90959
G1 X135.433 Y72.968 E.91207
G1 X134.491 Y72.999 E.92401
G1 X133.739 Y72.999 E.93354
G1 X133.518 Y72.948 E.93641
G1 X133.355 Y72.822 E.93902
G1 X133.265 Y72.673 E.94123
G1 X133.231 Y72.491 E.94358
G1 X133.231 Y65.509 E1.03202
G1 X133.265 Y65.327 E1.03437
G1 X133.344 Y65.196 E1.03631
G1 X133.344 Y65.196 F6000
G1 X133.627 Y65.392
;TYPE:External perimeter
G1 F1800
G1 X133.739 Y65.34 E1.03787
G1 X135.261 Y65.34 E1.05715
G1 X135.397 Y65.409 E1.05908
G1 X135.43 Y65.509 E1.06041
G1 X135.43 Y72.491 E1.14885
G1 X135.374 Y72.616 E1.15059
G1 X135.261 Y72.66 E1.15213
G1 X133.739 Y72.66 E1.17141
G1 X133.611 Y72.601 E1.1732
G1 X133.581 Y72.551 E1.17394
G1 X133.57 Y65.509 E1.26314
G1 X133.596 Y65.439 E1.26409
G1 X133.986 Y65.347 F6000
G1 E.76409 F1800
G92 E0
G1 Z.4 F6000
G1 X128.85 Y64.917
G1 Z.1
G1 E.5 F1800
;TYPE:Perimeter
G1 X128.902 Y64.957 E.50083
G1 X129.051 Y65.206 E.50451
G1 X129.107 Y65.509 E.50841
G1 X129.107 Y72.491 E.59685
G1 X129.051 Y72.794 E.60075
G1 X128.902 Y73.043 E.60443
G1 X128.629 Y73.253 E.60879
G1 X128.261 Y73.337 E.61357
G1 X126.739 Y73.337 E.63285
G1 X126.451 Y73.287 E.63655
G1 X126.265 Y73.192 E.6392
G1 X126.059 Y72.994 E.64282
G1 X125.945 Y72.784 E.64585
G1 X125.893 Y72.491 E.64962
G1 X125.893 Y65.509 E.73806
G1 X125.945 Y65.216 E.74183
G1 X126.173 Y64.881 E.74696
G1 X126.451 Y64.713 E.75107
G1 X126.739 Y64.663 E.75477
G1 X128.261 Y64.663 E.77405
G1 X128.629 Y64.747 E.77883
G1 X128.803 Y64.881 E.78161
G1 X128.803 Y64.881 F6000
G1 X128.614 Y65.154
G1 F1800
G1 X128.645 Y65.178 E.78211
G1 X128.759 Y65.414 E.78543
G1 X128.769 Y65.509 E.78664
G1 X128.769 Y72.491 E.87508
G1 X128.735 Y72.673 E.87743
G1 X128.645 Y72.822 E.87964
G1 X128.482 Y72.948 E.88225
G1 X128.261 Y72.999 E.88512
G1 X126.739 Y72.999 E.9044
G1 X126.455 Y72.911 E.90817
G1 X126.331 Y72.793 E.91034
G1 X126.231 Y72.491 E.91437
G1 X126.231 Y65.509 E1.00281
G1 X126.263 Y65.333 E1.00508
G1 X126.399 Y65.132 E1.00815
G1 X126.567 Y65.032 E1.01063
G1 X127.509 Y65.001 E1.02257
G1 X128.261 Y65.001 E1.0321
G1 X128.482 Y65.052 E1.03497
G1 X128.567 Y65.117 E1.03633
G1 X128.567 Y65.117 F6000
G1 X128.373 Y65.392
;TYPE:External perimeter
G1 F1800
G1 X128.389 Y65.399 E1.03655
G1 X128.43 Y65.509 E1.03804
G1 X128.43 Y72.491 E1.12648
G1 X128.389 Y72.601 E1.12797
G1 X128.261 Y72.66 E1.12976
G1 X126.739 Y72.66 E1.14904
G1 X126.644 Y72.631 E1.1503
G1 X126.57 Y72.491 E1.15231
G1 X126.57 Y65.509 E1.24075
G1 X126.644 Y65.369 E1.24276
G1 X126.739 Y65.34 E1.24402
G1 X128.261 Y65.34 E1.2633
G1 X128.319 Y65.367 E1.26411
G1 X128.424 Y65.752 F6000
G1 E.76411 F1800
G92 E0
G1 Z.4 F6000
G1 X124.119 Y64.92
G1 Z.1
G1 E.5 F1800
;TYPE:Perimeter
G1 X124.319 Y65.216 E.50453
G1 X124.372 Y65.509 E.5083
G1 X124.372 Y72.491 E.59674
G1 X124.319 Y72.784 E.60051
G1 X124.092 Y73.119 E.60564
G1 X123.77 Y73.301 E.61033
G1 X123.412 Y73.337 E.61489
G1 X122.004 Y73.337 E.63273
G1 X121.801 Y73.312 E.63532
G1 X121.459 Y73.138 E.64018
G1 X121.241 Y72.858 E.64468
G1 X121.158 Y72.491 E.64945
G1 X121.158 Y65.509 E.73789
G1 X121.241 Y65.142 E.74266
G1 X121.471 Y64.852 E.74735
G1 X121.801 Y64.688 E.75202
G1 X122.004 Y64.663 E.75461
G1 X123.525 Y64.663 E.77388
G1 X123.77 Y64.699 E.77702
G1 X124.081 Y64.874 E.78154
G1 X124.081 Y64.874 F6000
G1 X123.879 Y65.155
G1 F1800
G1 X123.934 Y65.207 E.7825
G1 X124.002 Y65.333 E.78431
G1 X124.033 Y65.509 E.78657
G1 X124.033 Y72.491 E.87501
G1 X124.002 Y72.667 E.87727
G1 X123.865 Y72.868 E.88035
G1 X123.672 Y72.977 E.88316
G1 X123.412 Y72.999 E.88647
G1 X122.004 Y72.999 E.90431
G1 X121.882 Y72.984 E.90587
G1 X121.677 Y72.879 E.90879
G1 X121.546 Y72.711 E.91149
G1 X121.496 Y72.491 E.91435
G1 X121.496 Y65.509 E1.00279
G1 X121.546 Y65.289 E1.00565
G1 X121.717 Y65.09 E1.00897
G1 X121.882 Y65.016 E1.01126
G1 X122.004 Y65.001 E1.01282
G1 X123.525 Y65.001 E1.03209
G1 X123.81 Y65.089 E1.03587
G1 X123.836 Y65.114 E1.03633
G1 X123.836 Y65.114 F6000
G1 X123.636 Y65.396
;TYPE:External perimeter
G1 F1787.682
G1 X123.662 Y65.409 E1.0367
G1 X123.695 Y65.509 E1.03803
G1 X123.695 Y72.491 E1.12647
G1 F1800
G1 X123.639 Y72.616 E1.12821
G1 X123.525 Y72.66 E1.12976
G1 X121.963 Y72.655 E1.14955
G1 X121.851 Y72.564 E1.15138
G1 X121.835 Y72.491 E1.15233
G1 X121.835 Y65.509 E1.24077
G1 X121.897 Y65.378 E1.24261
M73 P1 R21
G1 X122.004 Y65.34 E1.24405
G1 X123.525 Y65.34 E1.26332
G1 X123.582 Y65.368 E1.26412
G1 X123.689 Y65.754 F6000
G1 E.76412 F1800
G92 E0
G1 Z.4 F6000
G1 X126.913 Y75.88
G1 Z.1
G1 E.5 F1800
;TYPE:Perimeter
G1 X126.946 Y75.843 E.50063
G1 X127.194 Y75.689 E.50433
G1 X127.509 Y75.628 E.50839
G1 X134.491 Y75.628 E.59683
G1 X134.806 Y75.689 E.60089
G1 X135.054 Y75.843 E.60459
G1 X135.192 Y76.001 E.60725
G1 X135.301 Y76.23 E.61046
G1 X135.337 Y76.588 E.61502
G1 X135.337 Y77.996 E.63286
G1 X135.312 Y78.199 E.63545
G1 X135.138 Y78.541 E.64031
G1 X134.858 Y78.759 E.64481
G1 X134.491 Y78.842 E.64958
G1 X127.509 Y78.842 E.73802
G1 X127.142 Y78.759 E.74279
G1 X126.862 Y78.541 E.74729
G1 X126.688 Y78.199 E.75215
G1 X126.663 Y77.996 E.75474
G1 X126.663 Y76.475 E.77401
G1 X126.699 Y76.23 E.77715
G1 X126.808 Y76.001 E.78036
G1 X126.874 Y75.925 E.78164
G1 X126.874 Y75.925 F6000
G1 X127.164 Y76.129
G1 F1800
G1 X127.32 Y76.003 E.78418
G1 X127.509 Y75.967 E.78662
G1 X134.491 Y75.967 E.87506
G1 X134.68 Y76.003 E.8775
G1 X134.911 Y76.19 E.88126
G1 X134.999 Y76.475 E.88504
G1 X134.999 Y77.996 E.90431
G1 X134.935 Y78.243 E.90754
G1 X134.8 Y78.399 E.91015
G1 X134.535 Y78.502 E.91375
G1 X127.509 Y78.504 E1.00275
G1 X127.289 Y78.454 E1.00561
G1 X127.121 Y78.323 E1.00831
G1 X127.016 Y78.118 E1.01123
G1 X127.001 Y77.996 E1.01279
G1 X127.001 Y76.475 E1.03206
G1 X127.089 Y76.19 E1.03584
M73 P2 R21
G1 F1771.051
G1 X127.118 Y76.167 E1.03631
G1 X127.118 Y76.167 F6000
G1 X127.391 Y76.362
;TYPE:External perimeter
G1 F1800
G1 X127.397 Y76.348 E1.0365
G1 X127.509 Y76.305 E1.03802
G1 X134.491 Y76.305 E1.12646
G1 X134.631 Y76.38 E1.12847
G1 X134.66 Y76.588 E1.13113
G1 X134.66 Y77.996 E1.14897
G1 X134.594 Y78.13 E1.15086
G1 X134.491 Y78.165 E1.15224
G1 X127.509 Y78.165 E1.24068
G1 X127.38 Y78.105 E1.24248
G1 X127.34 Y77.996 E1.24395
G1 X127.34 Y76.475 E1.26322
G1 X127.366 Y76.416 E1.26404
G1 X127.752 Y76.311 F6000
G1 E.76404 F1800
G92 E0
G1 Z.4 F6000
G1 X127.15 Y83.12
G1 Z.1
G1 E.5 F1800
;TYPE:Perimeter
G1 F1786.551
G1 X127.16 Y83.106 E.50022
G1 X127.39 Y82.981 E.50354
G1 F1800
G1 X127.509 Y82.967 E.50506
G1 X134.491 Y82.967 E.5935
G1 X134.711 Y83.017 E.59636
G1 X134.84 Y83.106 E.59835
G1 X134.978 Y83.332 E.6017
G1 X134.999 Y83.475 E.60353
G1 X134.999 Y84.996 E.6228
G1 X134.897 Y85.301 E.62687
;WIDTH:0.379557
G1 X134.58 Y85.506 E.63193
G1 F1785.693
G1 X134.491 Y85.511 E.63312
;WIDTH:0.374318
G1 F1800
G1 X132.039 Y85.511 E.66549
;WIDTH:0.379557
G1 X131.919 Y85.514 E.6671
G1 F1787.14
G1 X131.233 Y85.504 E.67629
;WIDTH:0.374318
G1 F1800
G1 X127.509 Y85.511 E.72546
G1 F1754.676
G1 X127.103 Y85.301 E.7315
;WIDTH:0.359999
G1 F1800
G1 X127.001 Y84.945 E.73619
G1 X127.001 Y83.475 E.75481
G1 F1761.98
G1 X127.043 Y83.275 E.7574
G1 F1740.815
G1 X127.116 Y83.169 E.75903
G1 X127.116 Y83.169 F6000
G1 X127.389 Y83.361
;TYPE:External perimeter
G1 F1800
G1 X127.393 Y83.352 E.75915
G1 X127.509 Y83.305 E.76074
G1 X134.491 Y83.305 E.84918
G1 X134.607 Y83.352 E.85077
G1 X134.66 Y83.475 E.85247
G1 X134.66 Y84.996 E.87174
G1 X134.626 Y85.098 E.8731
G1 X134.491 Y85.165 E.87501
G1 X131.919 Y85.165 E.90759
G1 X127.509 Y85.165 E.96345
G1 X127.374 Y85.098 E.96536
G1 X127.34 Y84.945 E.96735
G1 X127.34 Y83.475 E.98597
G1 X127.365 Y83.416 E.98678
G1 X127.751 Y83.311 F6000
G1 E.48678 F1800
G92 E0
G1 Z.4 F6000
G1 X137.881 Y73.08
G1 Z.1
G1 E.5 F1800
;TYPE:Perimeter
G1 X137.681 Y72.784 E.50453
G1 X137.628 Y72.491 E.5083
G1 X137.628 Y65.509 E.59674
G1 X137.681 Y65.216 E.60051
G1 X137.908 Y64.881 E.60564
G1 X138.001 Y64.808 E.60714
G1 X138.23 Y64.699 E.61035
G1 X138.588 Y64.663 E.61491
G1 X139.996 Y64.663 E.63275
G1 X140.199 Y64.688 E.63534
G1 X140.541 Y64.862 E.6402
G1 X140.759 Y65.142 E.6447
G1 X140.842 Y65.509 E.64947
G1 X140.842 Y72.491 E.73791
G1 X140.759 Y72.858 E.74268
G1 X140.529 Y73.148 E.74737
G1 X140.199 Y73.312 E.75204
G1 X139.996 Y73.337 E.75463
G1 X138.475 Y73.337 E.7739
G1 X138.23 Y73.301 E.77704
G1 X137.919 Y73.126 E.78156
G1 X137.919 Y73.126 F6000
G1 X138.121 Y72.845
G1 F1800
G1 X138.066 Y72.793 E.78252
G1 X137.969 Y72.535 E.78601
G1 X137.967 Y65.509 E.87501
G1 X137.998 Y65.333 E.87727
G1 X138.135 Y65.132 E.88035
G1 X138.19 Y65.089 E.88123
G1 X138.475 Y65.001 E.88501
G1 X139.996 Y65.001 E.90428
G1 X140.243 Y65.065 E.90751
G1 X140.399 Y65.2 E.91012
G1 X140.49 Y65.39 E.91279
G1 X140.504 Y65.509 E.91431
G1 X140.504 Y72.491 E1.00275
G1 X140.454 Y72.711 E1.00561
G1 X140.283 Y72.91 E1.00893
G1 X140.118 Y72.984 E1.01122
G1 X139.996 Y72.999 E1.01278
G1 X138.475 Y72.999 E1.03205
G1 X138.19 Y72.911 E1.03583
G1 X138.164 Y72.886 E1.03629
G1 X138.164 Y72.886 F6000
G1 X138.364 Y72.604
;TYPE:External perimeter
G1 F1800
G1 X138.338 Y72.591 E1.03666
G1 X138.305 Y72.491 E1.03799
G1 X138.305 Y65.509 E1.12643
G1 X138.38 Y65.369 E1.12844
G1 X138.588 Y65.34 E1.1311
G1 X139.996 Y65.34 E1.14894
G1 X140.13 Y65.406 E1.15083
G1 X140.165 Y65.509 E1.15221
G1 X140.165 Y72.491 E1.24065
G1 X140.103 Y72.622 E1.24249
G1 X139.996 Y72.66 E1.24393
G1 X138.475 Y72.66 E1.2632
G1 X138.418 Y72.632 E1.264
G1 X138.311 Y72.246 F6000
G1 E.764 F1800
G92 E0
G1 Z.4 F6000
G1 X135.087 Y62.12
G1 Z.1
G1 E.5 F1800
;TYPE:Perimeter
G1 X135.054 Y62.157 E.50063
G1 X134.806 Y62.311 E.50433
G1 X134.491 Y62.372 E.50839
G1 X127.509 Y62.372 E.59683
G1 X127.194 Y62.311 E.60089
G1 X126.946 Y62.157 E.60459
G1 X126.808 Y61.999 E.60725
G1 X126.699 Y61.77 E.61046
G1 X126.663 Y61.412 E.61502
G1 X126.663 Y60.004 E.63286
G1 X126.688 Y59.801 E.63545
G1 X126.862 Y59.459 E.64031
G1 X127.142 Y59.241 E.64481
G1 X127.509 Y59.158 E.64958
G1 X134.491 Y59.158 E.73802
G1 X134.858 Y59.241 E.74279
G1 X135.148 Y59.471 E.74748
G1 X135.312 Y59.801 E.75215
G1 X135.337 Y60.004 E.75474
G1 X135.337 Y61.525 E.77401
G1 X135.301 Y61.77 E.77715
G1 X135.192 Y61.999 E.78036
G1 X135.126 Y62.075 E.78164
G1 X135.126 Y62.075 F6000
G1 X134.836 Y61.871
G1 F1800
G1 X134.68 Y61.997 E.78418
G1 X134.491 Y62.033 E.78662
G1 X127.509 Y62.033 E.87506
G1 X127.32 Y61.997 E.8775
G1 X127.089 Y61.81 E.88126
G1 X127.001 Y61.525 E.88504
G1 X127.001 Y60.004 E.90431
G1 X127.065 Y59.757 E.90754
G1 X127.2 Y59.601 E.91015
G1 X127.39 Y59.51 E.91282
G1 X127.509 Y59.496 E.91434
G1 X134.491 Y59.496 E1.00278
G1 X134.711 Y59.546 E1.00564
G1 X134.91 Y59.717 E1.00896
G1 X134.984 Y59.882 E1.01125
G1 X134.999 Y60.004 E1.01281
G1 X134.999 Y61.525 E1.03208
G1 X134.911 Y61.81 E1.03586
G1 F1770.551
G1 X134.882 Y61.833 E1.03633
G1 X134.882 Y61.833 F6000
G1 X134.609 Y61.638
;TYPE:External perimeter
G1 F1800
G1 X134.603 Y61.652 E1.03652
G1 X134.491 Y61.695 E1.03804
G1 X127.509 Y61.695 E1.12648
G1 X127.369 Y61.62 E1.12849
G1 X127.34 Y61.412 E1.13115
G1 X127.34 Y60.004 E1.14899
G1 X127.406 Y59.87 E1.15088
G1 X127.509 Y59.835 E1.15226
G1 X134.491 Y59.835 E1.2407
G1 X134.622 Y59.897 E1.24254
G1 X134.66 Y60.004 E1.24398
G1 X134.66 Y61.525 E1.26325
G1 X134.634 Y61.584 E1.26407
G1 X134.248 Y61.689 F6000
G1 E.76407 F1800
G92 E0
G1 Z.4 F6000
G1 X134.85 Y54.88
G1 Z.1
G1 E.5 F1800
;TYPE:Perimeter
G1 F1787.012
G1 X134.84 Y54.894 E.50022
G1 X134.61 Y55.019 E.50354
