; generated by PrusaSlicer 2.9.0 on 2025-07-07 at 20:45:36 UTC

; 

; external perimeters extrusion width = 0.42mm
; perimeters extrusion width = 0.42mm
; infill extrusion width = 0.42mm
; solid infill extrusion width = 0.42mm
; top infill extrusion width = 0.42mm
; first layer extrusion width = 0.36mm

; external perimeters extrusion width = 0.42mm
; perimeters extrusion width = 0.42mm
; infill extrusion width = 0.42mm
; solid infill extrusion width = 0.42mm
; top infill extrusion width = 0.42mm
; first layer extrusion width = 0.36mm

; external perimeters extrusion width = 0.42mm
; perimeters extrusion width = 0.42mm
; infill extrusion width = 0.42mm
; solid infill extrusion width = 0.42mm
; top infill extrusion width = 0.42mm
; first layer extrusion width = 0.36mm

M73 P0 R26
M190 S60 ; set bed temperature and wait for it to be reached
M104 S215 ; set temperature
;TYPE:Custom
G28 ; home all axes
G1 Z5 F5000 ; lift nozzle
M109 S215 ; set temperature and wait for it to be reached
G21 ; set units to millimeters
G90 ; use absolute coordinates
M82 ; use absolute distances for extrusion
G92 E0
; Filament gcode
M107
;LAYER_CHANGE
;Z:0.1
;HEIGHT:0.1
G1 E-.5 F1800
G1 Z.4 F6000
G1 X135.728 Y40.823
G1 Z.1
G1 E.00001 F1800
M201 X2000 Y2000
;TYPE:Skirt/Brim
;WIDTH:0.36
G1 X137.14 Y38.681 E.0325
G1 X142.671 Y33.259 E.13061
G1 X144.543 Y32.078 E.15865
G1 X146.964 Y31.633 E.18983
G1 X160.801 Y31.899 E.36514
G1 X162.969 Y32.337 E.39316
G1 X164.127 Y32.949 E.40975
G1 X192.141 Y51.825 E.83765
G1 X193.84 Y53.25 E.86574
G1 X194.816 Y54.206 E.88305
G1 X196.532 Y56.217 E.91654
G1 X197.942 Y58.338 E.9488
G1 X199.177 Y60.757 E.9832
G1 X200.105 Y63.281 E1.01726
G1 X200.679 Y65.651 E1.04815
G1 X200.973 Y67.832 E1.07603
G1 X201.051 Y69.425 E1.09623
G1 X200.913 Y72.227 E1.13177
G1 X200.552 Y74.436 E1.16012
G1 X199.887 Y76.857 E1.19192
G1 X199.177 Y78.699 E1.21693
G1 X197.581 Y81.712 E1.26012
G1 X196.532 Y83.239 E1.28359
G1 X195.108 Y84.938 E1.31167
G1 X194.152 Y85.914 E1.32898
G1 X192.699 Y87.198 E1.35354
G1 X190.17 Y88.957 E1.39256
G1 X162.352 Y104.766 E1.79787
G1 X159.258 Y105.572 E1.83837
G1 X146.283 Y105.474 E2.00273
G1 X144.109 Y105.061 E2.03076
G1 X142.155 Y103.848 E2.05989
G1 X136.623 Y98.425 E2.15802
G1 X135.352 Y96.614 E2.18605
G1 X134.786 Y94.033 E2.21952
G1 X134.786 Y82.929 E2.36018
G1 X135.303 Y42.994 E2.86609
G1 X135.716 Y40.882 E2.89335
G1 E2.39335
G92 E0
M202 X2000 Y2000
G1 X135.716 Y40.882 Z.4 F6000
G92 E0
G1 X172.351 Y65.047
G1 Z.1
G1 E.5 F1800
;TYPE:External perimeter
;WIDTH:0.331226
G1 X172.813 Y64.476 E.50851
;WIDTH:0.375401
G1 X172.891 Y64.366 E.5103
;WIDTH:0.419575
G1 F1582.168
G1 X172.97 Y64.256 E.51232
;WIDTH:0.463749
G1 F1410.622
G1 X173.048 Y64.146 E.51455
G1 F1375.204
G1 X173.348 Y63.913 E.52084
;WIDTH:0.419575
G1 F1474.594
G1 X173.648 Y63.68 E.5265
;WIDTH:0.375401
G1 F1603.443
G1 X173.948 Y63.447 E.53153
;WIDTH:0.331226
G1 F1800
G1 X174.44 Y63.146 E.53822
;WIDTH:0.330178
G1 X175.196 Y62.724 E.54822
;WIDTH:0.32971
G1 X175.999 Y62.385 E.55827
G1 X176.837 Y62.136 E.56835
G1 X177.698 Y61.983 E.57844
G1 X178.582 Y61.93 E.58865
;WIDTH:0.329601
G1 X179.544 Y61.981 E.59976
G1 X180.406 Y62.132 E.60985
G1 X181.245 Y62.379 E.61993
G1 X182.049 Y62.717 E.62999
;WIDTH:0.32971
G1 X182.799 Y63.134 E.63989
;WIDTH:0.330177
G1 X183.294 Y63.435 E.64658
;WIDTH:0.331226
G1 X183.882 Y63.911 E.65535
;WIDTH:0.375401
G1 X183.992 Y63.989 E.65714
;WIDTH:0.419576
G1 F1582.218
G1 X184.102 Y64.068 E.65916
;WIDTH:0.463751
G1 F1410.685
G1 X184.212 Y64.146 E.66139
G1 F1375.172
G1 X184.445 Y64.446 E.66768
;WIDTH:0.419576
G1 F1474.611
G1 X184.678 Y64.746 E.67334
;WIDTH:0.375401
G1 F1603.435
G1 X184.911 Y65.046 E.67837
;WIDTH:0.331226
G1 F1800
G1 X185.212 Y65.538 E.68506
;WIDTH:0.330178
G1 X185.634 Y66.294 E.69506
;WIDTH:0.32971
G1 X185.973 Y67.097 E.70511
G1 X186.222 Y67.935 E.71519
G1 X186.374 Y68.795 E.72526
G1 X186.43 Y69.719 E.73594
;WIDTH:0.329601
G1 X186.377 Y70.643 E.74661
G1 X186.226 Y71.504 E.75669
G1 X185.979 Y72.343 E.76677
G1 X185.641 Y73.147 E.77683
;WIDTH:0.32971
G1 X185.224 Y73.897 E.78673
;WIDTH:0.330176
G1 X184.923 Y74.392 E.79342
;WIDTH:0.331225
G1 X184.447 Y74.98 E.80219
;WIDTH:0.3754
G1 X184.369 Y75.09 E.80398
;WIDTH:0.419575
G1 F1582.314
G1 X184.29 Y75.2 E.806
;WIDTH:0.46375
G1 F1410.633
G1 X184.212 Y75.31 E.80823
G1 F1375.235
G1 X183.912 Y75.543 E.81452
;WIDTH:0.419575
G1 F1474.696
G1 X183.612 Y75.776 E.82018
;WIDTH:0.3754
G1 F1603.516
G1 X183.312 Y76.009 E.82521
;WIDTH:0.331225
G1 F1800
G1 X182.82 Y76.31 E.8319
;WIDTH:0.330178
G1 X182.064 Y76.732 E.8419
;WIDTH:0.329709
G1 X181.261 Y77.071 E.85195
G1 X180.423 Y77.319 E.86203
G1 X179.562 Y77.472 E.87212
G1 X178.639 Y77.528 E.88279
;WIDTH:0.329602
G1 X177.715 Y77.474 E.89346
G1 X176.854 Y77.323 E.90354
G1 X176.015 Y77.077 E.91362
G1 X175.211 Y76.739 E.92368
;WIDTH:0.329921
G1 F1774.935
G1 X175.203 Y76.736 E.92378
G1 F1800
G1 X174.461 Y76.322 E.93359
;WIDTH:0.330178
G1 X173.966 Y76.02 E.94029
;WIDTH:0.331227
G1 X173.378 Y75.545 E.94905
;WIDTH:0.375402
G1 X173.268 Y75.467 E.95084
;WIDTH:0.419576
G1 F1582.234
G1 X173.158 Y75.388 E.95286
;WIDTH:0.46375
G1 F1410.7
G1 X173.048 Y75.31 E.95509
G1 F1375.188
G1 X172.815 Y75.01 E.96138
;WIDTH:0.419576
G1 F1474.666
G1 X172.582 Y74.71 E.96704
;WIDTH:0.375401
G1 F1603.456
G1 X172.349 Y74.41 E.97207
;WIDTH:0.331226
G1 F1800
G1 X172.048 Y73.918 E.97876
;WIDTH:0.33018
G1 X171.626 Y73.162 E.98876
;WIDTH:0.329711
G1 X171.287 Y72.359 E.99881
G1 X171.038 Y71.521 E1.00889
G1 X170.886 Y70.66 E1.01897
G1 X170.83 Y69.737 E1.02964
;WIDTH:0.329602
G1 X170.883 Y68.813 E1.04031
G1 X171.034 Y67.952 E1.05039
G1 X171.281 Y67.113 E1.06047
G1 X171.619 Y66.309 E1.07053
;WIDTH:0.32971
G1 X172.036 Y65.559 E1.08043
;WIDTH:0.330176
G1 X172.317 Y65.096 E1.08669
G1 X172.566 Y64.783 F6000
G1 E.58669 F1800
G92 E0
G1 Z.4 F6000
G1 X173.055 Y75.717
G1 Z.1
G1 E.5 F1800
;WIDTH:0.419576
G1 F1410.422
G1 X173.112 Y75.748 E.50097
;WIDTH:0.375402
G1 F1581.54
G1 X173.183 Y75.785 E.50203
;WIDTH:0.331248
G1 F1800
G1 X173.765 Y76.259 E.51073
G1 X174.28 Y76.574 E.51773
;WIDTH:0.330177
G1 X175.046 Y77.001 E.52786
;WIDTH:0.32971
G1 X175.879 Y77.355 E.5383
G1 X176.75 Y77.615 E.54878
G1 X177.644 Y77.776 E.55926
G1 X178.603 Y77.836 E.57034
;WIDTH:0.329602
G1 X179.563 Y77.782 E.58143
G1 X180.46 Y77.627 E.59193
G1 X181.332 Y77.373 E.6024
G1 X182.169 Y77.023 E.61286
;WIDTH:0.32971
G1 X182.949 Y76.591 E.62314
;WIDTH:0.330178
G1 X183.455 Y76.284 E.62998
;WIDTH:0.331227
G1 X184.077 Y75.785 E.63922
;WIDTH:0.375402
G1 X184.148 Y75.748 E.64028
;WIDTH:0.419576
G1 X184.218 Y75.71 E.64147
;WIDTH:0.46375
G1 F1750.794
G1 X184.288 Y75.672 E.64279
G1 F1742.359
G1 X184.352 Y75.736 E.64429
;WIDTH:0.44898
G1 F1715.378
G1 X186.783 Y78.174 E.69937
G1 F1461.514
G1 X189.213 Y80.613 E.75444
G1 F1453.905
G1 X189.246 Y80.706 E.75602
;WIDTH:0.408535
G1 F1584.912
G1 X189.172 Y80.891 E.75891
;WIDTH:0.359999
G1 F1800
G1 X188.083 Y81.838 E.77719
G1 X186.657 Y82.817 E.7991
G1 X184.999 Y83.699 E.82289
G1 X183.278 Y84.362 E.84625
G1 X181.635 Y84.785 E.86774
G1 X180.127 Y85.009 E.88705
G1 X178.622 Y85.082 E.90614
G1 X177.117 Y85.007 E.92523
G1 X175.625 Y84.785 E.94434
G1 X173.982 Y84.362 E.96583
G1 X172.261 Y83.699 E.98919
G1 X170.603 Y82.817 E1.01298
G1 X169.177 Y81.838 E1.03489
G1 X168.085 Y80.888 E1.05322
;WIDTH:0.408535
G1 X168.014 Y80.706 E1.05605
;WIDTH:0.44898
G1 X168.047 Y80.613 E1.05763
G1 F1772.991
G1 X170.478 Y78.174 E1.1127
G1 F1691.963
G1 X172.908 Y75.736 E1.16778
;WIDTH:0.46375
G1 F1628.089
G1 X172.972 Y75.672 E1.16928
G1 F1631.59
G1 X173.002 Y75.688 E1.16984
G1 X173.332 Y75.913 F6000
G1 X172.641 Y75.303
;WIDTH:0.419576
G1 F1800
G1 X172.648 Y75.316 E1.17006
;WIDTH:0.46375
G1 F1751.019
G1 X172.686 Y75.386 E1.17138
G1 F1742.183
G1 X172.622 Y75.45 E1.17288
;WIDTH:0.44898
G1 F1715.382
G1 X170.184 Y77.88 E1.22796
G1 F1461.526
G1 X167.745 Y80.311 E1.28303
G1 F1453.915
G1 X167.652 Y80.344 E1.28461
;WIDTH:0.408535
G1 F1584.923
G1 X167.467 Y80.27 E1.2875
;WIDTH:0.359999
G1 F1800
G1 X166.52 Y79.181 E1.30578
G1 X165.541 Y77.755 E1.32769
G1 X164.659 Y76.097 E1.35148
G1 X163.996 Y74.376 E1.37484
G1 X163.573 Y72.733 E1.39633
G1 X163.35 Y71.241 E1.41544
G1 X163.276 Y69.736 E1.43453
G1 X163.35 Y68.215 E1.45382
G1 X163.573 Y66.723 E1.47293
G1 X163.996 Y65.08 E1.49442
G1 X164.659 Y63.359 E1.51778
G1 X165.541 Y61.701 E1.54157
G1 X166.52 Y60.275 E1.56348
G1 X167.467 Y59.186 E1.58176
;WIDTH:0.399656
G1 X167.651 Y59.116 E1.58455
;WIDTH:0.448981
G1 X167.745 Y59.145 E1.58612
G1 F1687.235
G1 X170.184 Y61.576 E1.6412
G1 F1348.939
G1 X172.622 Y64.006 E1.69627
;WIDTH:0.463749
G1 F1295.863
M73 P1 R26
G1 X172.686 Y64.07 E1.69777
G1 F1283.9
G1 X172.648 Y64.14 E1.69909
;WIDTH:0.419575
G1 F1412.231
G1 X172.61 Y64.21 E1.70028
;WIDTH:0.375401
G1 F1581.54
G1 X172.573 Y64.281 E1.70134
;WIDTH:0.331248
G1 F1800
G1 X172.099 Y64.863 E1.71004
G1 X171.784 Y65.377 E1.71703
;WIDTH:0.330179
G1 F1643.797
G1 X171.783 Y65.38 E1.71707
G1 F1800
G1 X171.357 Y66.144 E1.72717
;WIDTH:0.32971
G1 X171.003 Y66.977 E1.73761
G1 X170.743 Y67.848 E1.74809
G1 X170.582 Y68.742 E1.75857
G1 X170.522 Y69.701 E1.76965
;WIDTH:0.329602
G1 X170.576 Y70.661 E1.78074
G1 X170.731 Y71.558 E1.79124
G1 X170.985 Y72.43 E1.80171
G1 X171.335 Y73.266 E1.81216
;WIDTH:0.329711
G1 X171.767 Y74.047 E1.82245
;WIDTH:0.330177
G1 X172.074 Y74.553 E1.82929
;WIDTH:0.331227
G1 X172.573 Y75.175 E1.83853
;WIDTH:0.375402
G1 X172.61 Y75.245 E1.83958
;WIDTH:0.419576
G1 X172.613 Y75.25 E1.83967
G1 X172.461 Y75.621 F6000
G1 E1.33967 F1800
G92 E0
G1 Z.4 F6000
G1 X173.055 Y63.739
G1 Z.1
G1 E.5 F1800
;WIDTH:0.419576
G1 X173.042 Y63.746 E.50022
;WIDTH:0.463749
G1 F1751.085
G1 X172.972 Y63.784 E.50154
G1 F1742.025
G1 X172.908 Y63.72 E.50304
;WIDTH:0.448981
G1 F1710.298
G1 X170.478 Y61.282 E.55812
G1 F1441.193
G1 X168.047 Y58.843 E.61319
G1 F1436.271
G1 X168.038 Y58.766 E.61443
;WIDTH:0.40449
G1 F1591.479
G1 X168.03 Y58.689 E.61554
;WIDTH:0.359999
G1 F1800
G1 X168.088 Y58.565 E.61727
G1 X169.177 Y57.618 E.63555
G1 X170.619 Y56.629 E.6577
G1 X172.243 Y55.765 E.681
G1 X174.001 Y55.088 E.70486
G1 X175.625 Y54.67 E.7261
G1 X177.117 Y54.448 E.74521
G1 X178.558 Y54.377 E.76349
G1 X180.127 Y54.447 E.78338
G1 X181.617 Y54.667 E.80246
G1 X183.278 Y55.094 E.82418
G1 X185.017 Y55.765 E.84779
G1 X186.657 Y56.639 E.87133
G1 X188.083 Y57.618 E.89324
G1 X189.172 Y58.565 E.91152
;WIDTH:0.399645
G1 X189.242 Y58.749 E.91431
;WIDTH:0.448957
G1 X189.213 Y58.843 E.91588
G1 F1687.159
G1 X186.783 Y61.282 E.97096
G1 F1348.635
G1 X184.352 Y63.72 E1.02603
;WIDTH:0.463751
G1 F1295.53
G1 X184.288 Y63.784 E1.02753
G1 F1283.436
G1 X184.218 Y63.746 E1.02885
;WIDTH:0.419576
G1 F1411.907
G1 X184.148 Y63.708 E1.03004
;WIDTH:0.375401
G1 F1575.441
G1 X184.077 Y63.67 E1.03111
;WIDTH:0.331248
G1 F1800
G1 X183.495 Y63.197 E1.0398
G1 X182.981 Y62.882 E1.04679
;WIDTH:0.330176
G1 X182.214 Y62.455 E1.05693
;WIDTH:0.32971
G1 X181.381 Y62.101 E1.06737
G1 X180.51 Y61.841 E1.07785
G1 X179.616 Y61.68 E1.08833
;WIDTH:0.331864
G1 X178.639 Y61.62 E1.0997
G1 X177.697 Y61.674 E1.11066
;WIDTH:0.329666
G1 X176.8 Y61.829 E1.12116
G1 X175.928 Y62.083 E1.13163
G1 X175.092 Y62.433 E1.14208
G1 X174.311 Y62.864 E1.15237
;WIDTH:0.330177
G1 X173.805 Y63.172 E1.15921
;WIDTH:0.331228
G1 X173.183 Y63.67 E1.16845
;WIDTH:0.375402
G1 X173.112 Y63.708 E1.16952
;WIDTH:0.419576
G1 X173.108 Y63.711 E1.16959
G1 X172.737 Y63.559 F6000
G1 E.66959 F1800
G92 E0
G1 Z.4 F6000
G1 X184.619 Y64.153
G1 Z.1
G1 E.5 F1800
;WIDTH:0.419577
G1 X184.612 Y64.14 E.50022
;WIDTH:0.463751
G1 F1750.86
G1 X184.574 Y64.07 E.50154
G1 F1742.08
G1 X184.638 Y64.006 E.50304
;WIDTH:0.448957
G1 F1710.311
G1 X187.077 Y61.576 E.55812
G1 F1441.245
G1 X189.515 Y59.145 E.61319
G1 F1436.248
G1 X189.592 Y59.136 E.61443
;WIDTH:0.404478
G1 F1591.791
G1 X189.669 Y59.128 E.61554
;WIDTH:0.359999
G1 F1800
G1 X189.793 Y59.186 E.61727
G1 X190.74 Y60.275 E.63555
G1 X191.729 Y61.717 E.6577
G1 X192.601 Y63.359 E.68125
G1 X193.264 Y65.08 E.70461
G1 X193.687 Y66.723 E.7261
G1 X193.91 Y68.215 E.74521
G1 X193.984 Y69.72 E.7643
G1 X193.91 Y71.241 E.78359
G1 X193.687 Y72.733 E.8027
G1 X193.264 Y74.376 E.82419
G1 X192.601 Y76.097 E.84755
G1 X191.719 Y77.755 E.87134
G1 X190.74 Y79.181 E.89325
G1 X189.793 Y80.27 E.91153
;WIDTH:0.408535
G1 X189.608 Y80.344 E.91442
;WIDTH:0.44898
G1 X189.515 Y80.311 E.916
G1 F1687.183
G1 X187.077 Y77.88 E.97107
G1 F1348.733
G1 X184.638 Y75.45 E1.02615
;WIDTH:0.46375
G1 F1295.432
G1 X184.574 Y75.386 E1.02765
G1 F1283.883
G1 X184.603 Y75.327 E1.02874
;WIDTH:0.420036
G1 F1414.262
G1 X184.631 Y75.267 E1.02973
;WIDTH:0.376321
G1 F1587.735
G1 X184.66 Y75.208 E1.0306
;WIDTH:0.332606
G1 F1800
G1 X185.151 Y74.605 E1.03965
;WIDTH:0.331225
G1 X185.476 Y74.078 E1.04683
;WIDTH:0.330178
G1 X185.903 Y73.312 E1.05696
;WIDTH:0.32971
G1 X186.257 Y72.478 E1.06741
G1 X186.517 Y71.608 E1.07788
G1 X186.678 Y70.714 E1.08836
G1 X186.738 Y69.755 E1.09944
;WIDTH:0.329601
G1 X186.684 Y68.795 E1.11053
G1 X186.529 Y67.898 E1.12103
G1 X186.275 Y67.026 E1.1315
G1 X185.925 Y66.189 E1.14196
;WIDTH:0.329711
G1 X185.493 Y65.409 E1.15224
;WIDTH:0.330177
G1 X185.186 Y64.903 E1.15908
;WIDTH:0.331227
G1 X184.687 Y64.281 E1.16832
;WIDTH:0.375402
G1 X184.65 Y64.21 E1.16938
;WIDTH:0.419577
G1 X184.647 Y64.205 E1.16947
G1 X184.799 Y63.835 F6000
G1 E.66947 F1800
G92 E0
G1 Z.4 F6000
G1 X190.333 Y59.257
G1 Z.1
G1 E.5 F1800
;TYPE:Perimeter
;WIDTH:0.40658
G1 X191.038 Y60.07 E.51551
;WIDTH:0.406008
G1 X192.048 Y61.548 E.54127
;WIDTH:0.405486
G1 X192.912 Y63.171 E.56769
G1 X193.601 Y64.95 E.5951
;WIDTH:0.405832
G1 X194.037 Y66.633 E.6201
;WIDTH:0.406178
G1 X194.267 Y68.162 E.64236
G1 X194.346 Y69.702 E.66456
;WIDTH:0.406818
G1 X194.346 Y69.728 E.66493
G1 X194.346 Y69.754 E.6653
;WIDTH:0.406178
G1 X194.267 Y71.294 E.6875
G1 X194.037 Y72.823 E.70976
;WIDTH:0.40583
G1 X193.601 Y74.506 E.73476
;WIDTH:0.405494
G1 X192.938 Y76.227 E.76126
G1 X192.048 Y77.908 E.78859
;WIDTH:0.406012
G1 X191.038 Y79.386 E.81435
;WIDTH:0.406582
G1 X190.066 Y80.508 E.83574
;WIDTH:0.449526
G1 F1732.14
G1 X189.969 Y80.575 E.83763
;WIDTH:0.492472
G1 F1561.783
G1 X189.872 Y80.642 E.83971
;WIDTH:0.535418
G1 F1418.761
G1 X189.775 Y80.709 E.84198
;WIDTH:0.578364
G1 F1296.689
G1 X189.678 Y80.776 E.84444
G1 F1283.581
G1 X189.611 Y80.873 E.8469
;WIDTH:0.535418
G1 F1377.099
G1 X189.544 Y80.97 E.84917
;WIDTH:0.492472
G1 F1489.078
G1 X189.477 Y81.067 E.85125
;WIDTH:0.449526
G1 F1624.576
G1 X189.41 Y81.164 E.85314
;WIDTH:0.40658
G1 F1800
G1 X188.288 Y82.136 E.87453
;WIDTH:0.406006
G1 X186.81 Y83.146 E.90029
;WIDTH:0.405486
G1 X185.187 Y84.009 E.9267
G1 X183.408 Y84.699 E.95412
;WIDTH:0.405832
G1 X181.725 Y85.135 E.97912
;WIDTH:0.406182
G1 X180.196 Y85.365 E1.00138
G1 X178.604 Y85.443 E1.02432
G1 X177.064 Y85.365 E1.04652
G1 X175.535 Y85.135 E1.06878
;WIDTH:0.405834
G1 X173.852 Y84.699 E1.09378
;WIDTH:0.405498
G1 X172.073 Y84.009 E1.1212
G1 X170.45 Y83.146 E1.14761
;WIDTH:0.406012
G1 X168.972 Y82.136 E1.17337
;WIDTH:0.406584
G1 X167.85 Y81.164 E1.19476
;WIDTH:0.44953
G1 F1732.151
G1 X167.783 Y81.067 E1.19665
;WIDTH:0.492476
G1 F1561.829
G1 X167.716 Y80.97 E1.19873
;WIDTH:0.535422
G1 F1418.762
G1 X167.649 Y80.873 E1.201
;WIDTH:0.578368
G1 F1296.691
G1 X167.582 Y80.776 E1.20346
G1 F1283.582
G1 X167.485 Y80.709 E1.20592
;WIDTH:0.535421
G1 F1377.237
G1 X167.388 Y80.642 E1.20819
;WIDTH:0.492474
G1 F1488.994
G1 X167.291 Y80.575 E1.21027
;WIDTH:0.449527
G1 F1624.569
G1 X167.194 Y80.508 E1.21216
;WIDTH:0.40658
G1 F1800
G1 X166.222 Y79.386 E1.23355
;WIDTH:0.40601
G1 X165.212 Y77.908 E1.25931
;WIDTH:0.405488
G1 X164.348 Y76.285 E1.28573
G1 X163.659 Y74.506 E1.31314
;WIDTH:0.405834
G1 X163.223 Y72.823 E1.33814
;WIDTH:0.40618
G1 X162.993 Y71.294 E1.3604
G1 X162.914 Y69.754 E1.3826
G1 X162.993 Y68.162 E1.40555
G1 X163.223 Y66.633 E1.42781
;WIDTH:0.40583
G1 X163.659 Y64.95 E1.45281
;WIDTH:0.405498
G1 X164.322 Y63.229 E1.47931
G1 X165.212 Y61.548 E1.50664
;WIDTH:0.40601
G1 X166.222 Y60.07 E1.5324
;WIDTH:0.40658
G1 X167.194 Y58.948 E1.55379
;WIDTH:0.449523
G1 F1732.157
G1 X167.291 Y58.881 E1.55568
;WIDTH:0.49247
G1 F1561.834
G1 X167.388 Y58.814 E1.55776
;WIDTH:0.535417
G1 F1418.741
