; generated by PrusaSlicer 2.9.0 on 2025-06-26 at 23:01:55 UTC

; 

; external perimeters extrusion width = 0.42mm
; perimeters extrusion width = 0.42mm
; infill extrusion width = 0.42mm
; solid infill extrusion width = 0.42mm
; top infill extrusion width = 0.42mm
; support material extrusion width = 0.35mm
; first layer extrusion width = 0.42mm

; external perimeters extrusion width = 0.42mm
; perimeters extrusion width = 0.42mm
; infill extrusion width = 0.42mm
; solid infill extrusion width = 0.42mm
; top infill extrusion width = 0.42mm
; support material extrusion width = 0.35mm
; first layer extrusion width = 0.42mm

; external perimeters extrusion width = 0.42mm
; perimeters extrusion width = 0.42mm
; infill extrusion width = 0.42mm
; solid infill extrusion width = 0.42mm
; top infill extrusion width = 0.42mm
; support material extrusion width = 0.35mm
; first layer extrusion width = 0.42mm

; external perimeters extrusion width = 0.42mm
; perimeters extrusion width = 0.42mm
; infill extrusion width = 0.42mm
; solid infill extrusion width = 0.42mm
; top infill extrusion width = 0.42mm
; support material extrusion width = 0.35mm
; first layer extrusion width = 0.42mm

; external perimeters extrusion width = 0.42mm
; perimeters extrusion width = 0.42mm
; infill extrusion width = 0.42mm
; solid infill extrusion width = 0.42mm
; top infill extrusion width = 0.42mm
; support material extrusion width = 0.35mm
; first layer extrusion width = 0.42mm

; external perimeters extrusion width = 0.42mm
; perimeters extrusion width = 0.42mm
; infill extrusion width = 0.42mm
; solid infill extrusion width = 0.42mm
; top infill extrusion width = 0.42mm
; support material extrusion width = 0.35mm
; first layer extrusion width = 0.42mm

; external perimeters extrusion width = 0.42mm
; perimeters extrusion width = 0.42mm
; infill extrusion width = 0.42mm
; solid infill extrusion width = 0.42mm
; top infill extrusion width = 0.42mm
; support material extrusion width = 0.35mm
; first layer extrusion width = 0.42mm

; external perimeters extrusion width = 0.42mm
; perimeters extrusion width = 0.42mm
; infill extrusion width = 0.42mm
; solid infill extrusion width = 0.42mm
; top infill extrusion width = 0.42mm
; support material extrusion width = 0.35mm
; first layer extrusion width = 0.42mm

; external perimeters extrusion width = 0.42mm
; perimeters extrusion width = 0.42mm
; infill extrusion width = 0.42mm
; solid infill extrusion width = 0.42mm
; top infill extrusion width = 0.42mm
; support material extrusion width = 0.35mm
; first layer extrusion width = 0.42mm

M73 P0 R76
M190 S60 ; set bed temperature and wait for it to be reached
M104 S215 ; set temperature
;TYPE:Custom
G28 ; home all axes
G1 Z5 F5000 ; lift nozzle
M109 S215 ; set temperature and wait for it to be reached
G21 ; set units to millimeters
G90 ; use absolute coordinates
M82 ; use absolute distances for extrusion
G92 E0
; Filament gcode
M107
;LAYER_CHANGE
;Z:0.2
;HEIGHT:0.2
G1 E-.5 F1800
G1 Z.5 F6000
G1 X75.604 Y43.433
G1 Z.2
G1 E.00001 F1800
M201 X2000 Y2000
;TYPE:Skirt/Brim
;WIDTH:0.42
G1 X76.767 Y41.546 E.0695
G1 X78.89 Y40.014 E.15159
G1 X103.102 Y29.433 E.98007
G1 X105.58 Y28.915 E1.05945
G1 X141.58 Y28.915 E2.1882
G1 X142.582 Y28.997 E2.21972
G1 X179.144 Y34.995 E3.38142
G1 X181.053 Y35.64 E3.4446
G1 X181.729 Y36 E3.46861
G1 X183.562 Y37.487 E3.54262
G1 X184.151 Y38.196 E3.57152
G1 X205.91 Y66.108 E4.68118
G1 X206.937 Y68.071 E4.75064
G1 X207.218 Y69.913 E4.80906
G1 X207.218 Y103.913 E5.87511
G1 X206.821 Y106.093 E5.94459
G1 X205.682 Y107.994 E6.01407
G1 X203.946 Y109.371 E6.08355
G1 X201.029 Y110.101 E6.17783
G1 X138.906 Y110.1 E8.12565
G1 X100.367 Y109.33 E9.33425
G1 X79.59 Y108.617 E9.98608
M73 P0 R75
G1 X78.163 Y108.445 E10.03115
G1 X76.306 Y107.859 E10.09221
G1 X75.688 Y107.55 E10.11387
G1 X73.84 Y106.136 E10.18683
G1 X73.427 Y105.673 E10.20628
G1 X72.064 Y103.142 E10.29641
G1 X71.747 Y101.666 E10.34374
G1 X69.79 Y83.374 E10.92055
G1 X69.755 Y59.973 E11.65427
G1 X69.874 Y58.765 E11.69233
G1 X70.341 Y56.906 E11.75243
G1 X75.582 Y43.489 E12.20407
G1 E11.70407
G92 E0
M202 X2000 Y2000
G1 X75.582 Y43.489 Z.5 F5999
G92 E0
G1 X139.993 Y70.877 F6000
G1 Z.2
G1 E.5 F1800
;TYPE:Perimeter
;WIDTH:0.419999
G1 X200.065 Y70.877 E2.38351
G1 X200.065 Y86.913 E2.88631
G1 X200.065 Y102.949 E3.38911
G1 X139.993 Y102.949 E5.27262
G1 X139.993 Y70.937 E6.27633
G1 X139.993 Y70.937 F6000
G1 X139.616 Y70.5
G1 F1800
G1 X200.442 Y70.5 E8.18348
G1 X200.442 Y86.913 E8.6981
G1 X200.442 Y103.326 E9.21272
G1 X139.616 Y103.326 E11.11987
G1 X139.616 Y70.56 E12.14722
G1 X139.616 Y70.56 F6000
G1 X139.239 Y70.123
;TYPE:External perimeter
G1 F1800
G1 X200.819 Y70.123 E14.07801
G1 X200.819 Y86.913 E14.60445
G1 X200.819 Y103.703 E15.13089
G1 X139.239 Y103.703 E17.06168
G1 X139.239 Y70.183 E18.11267
G1 X139.635 Y70.123 F6000
G1 E17.61267 F1800
G92 E0
G1 Z.5 F6000
G1 X199.914 Y71.794
G1 Z.2
G1 E.5 F1800
;TYPE:Solid infill
;WIDTH:0.421761
G1 X199.318 Y71.198 E.52655
G1 X198.782 Y71.198 E.54343
G1 X199.745 Y72.16 E.58631
G1 X199.745 Y72.696 E.60319
G1 X198.246 Y71.198 E.66995
G1 X197.711 Y71.198 E.6868
G1 X199.745 Y73.231 E.77739
G1 X199.745 Y73.767 E.79427
G1 X197.175 Y71.198 E.90874
G1 X196.639 Y71.198 E.92562
G1 X199.745 Y74.303 E1.06397
G1 X199.745 Y74.839 E1.08085
G1 X196.103 Y71.198 E1.24307
G1 X195.568 Y71.198 E1.25992
G1 X199.745 Y75.374 E1.44598
G1 X199.745 Y75.91 E1.46286
G1 X195.032 Y71.198 E1.6728
G1 X194.496 Y71.198 E1.68968
G1 X199.745 Y76.446 E1.92349
G1 X199.745 Y76.982 E1.94037
G1 X193.96 Y71.198 E2.19806
G1 X193.425 Y71.198 E2.21491
G1 X199.745 Y77.518 E2.49646
G1 X199.745 Y78.053 E2.51331
G1 X192.889 Y71.198 E2.81871
G1 X192.353 Y71.198 E2.83559
G1 X199.745 Y78.589 E3.16487
G1 X199.745 Y79.125 E3.18175
G1 X191.817 Y71.198 E3.53491
G1 X191.281 Y71.198 E3.55179
G1 X199.745 Y79.661 E3.92883
G1 X199.745 Y80.196 E3.94568
G1 X190.746 Y71.198 E4.34655
G1 X190.21 Y71.198 E4.36343
G1 X199.745 Y80.732 E4.78818
G1 X199.745 Y81.268 E4.80506
G1 X189.674 Y71.198 E5.25369
G1 X189.138 Y71.198 E5.27057
G1 X199.745 Y81.804 E5.74308
G1 X199.745 Y82.339 E5.75993
G1 X188.603 Y71.198 E6.25627
G1 X188.067 Y71.198 E6.27315
G1 X199.745 Y82.875 E6.79337
G1 X199.745 Y83.411 E6.81025
G1 X187.531 Y71.198 E7.35435
G1 X186.995 Y71.198 E7.37123
G1 X199.745 Y83.947 E7.9392
G1 X199.745 Y84.482 E7.95605
G1 X186.46 Y71.198 E8.54786
G1 X185.924 Y71.198 E8.56474
G1 X199.745 Y85.018 E9.18043
G1 X199.745 Y85.554 E9.19731
G1 X185.388 Y71.198 E9.83687
G1 X184.852 Y71.198 E9.85375
M73 P1 R75
G1 X199.745 Y86.09 E10.51719
G1 X199.745 Y86.625 E10.53404
G1 X184.317 Y71.198 E11.22132
G1 X183.781 Y71.198 E11.2382
G1 X199.745 Y87.161 E11.94935
G1 X199.745 Y87.697 E11.96623
G1 X183.245 Y71.198 E12.70126
G1 X182.709 Y71.198 E12.71814
G1 X199.745 Y88.233 E13.47705
G1 X199.745 Y88.769 E13.49393
G1 X182.174 Y71.198 E14.2767
G1 X181.638 Y71.198 E14.29358
G1 X199.745 Y89.304 E15.1002
G1 X199.745 Y89.84 E15.11708
G1 X181.102 Y71.198 E15.94758
G1 X180.566 Y71.198 E15.96446
G1 X199.745 Y90.376 E16.81884
G1 X199.745 Y90.912 E16.83572
G1 X180.03 Y71.198 E17.71398
G1 X179.495 Y71.198 E17.73083
G1 X199.745 Y91.447 E18.63292
G1 X199.745 Y91.983 E18.6498
G1 X178.959 Y71.198 E19.57577
G1 X178.423 Y71.198 E19.59265
G1 X199.745 Y92.519 E20.5425
G1 X199.745 Y93.055 E20.55938
G1 X177.887 Y71.198 E21.53311
G1 X177.352 Y71.198 E21.54996
G1 X199.745 Y93.59 E22.54752
G1 X199.745 Y94.126 E22.5644
G1 X176.816 Y71.198 E23.58584
G1 X176.28 Y71.198 E23.60272
G1 X199.745 Y94.662 E24.64804
G1 X199.745 Y95.198 E24.66492
G1 X175.744 Y71.198 E25.73411
G1 X175.209 Y71.198 E25.75096
G1 X199.745 Y95.733 E26.84399
G1 X199.745 Y96.269 E26.86087
G1 X174.673 Y71.198 E27.97778
G1 X174.137 Y71.198 E27.99466
G1 X199.745 Y96.805 E29.13544
G1 X199.745 Y97.341 E29.15232
G1 X173.601 Y71.198 E30.31698
G1 X173.066 Y71.198 E30.33383
G1 X199.745 Y97.876 E31.52233
G1 X199.745 Y98.412 E31.53921
G1 X172.53 Y71.198 E32.75158
G1 X171.994 Y71.198 E32.76846
G1 X199.745 Y98.948 E34.00471
G1 X199.745 Y99.484 E34.02159
M73 P1 R74
G1 X171.458 Y71.198 E35.28172
G1 X170.922 Y71.198 E35.2986
G1 X199.745 Y100.02 E36.58261
G1 X199.745 Y100.555 E36.59946
G1 X170.387 Y71.198 E37.9073
G1 X169.851 Y71.198 E37.92418
G1 X199.745 Y101.091 E39.2559
G1 X199.745 Y101.627 E39.27278
G1 X169.315 Y71.198 E40.62838
G1 X168.779 Y71.198 E40.64526
G1 X199.745 Y102.163 E42.02474
G1 X199.745 Y102.628 E42.03939
G1 X199.674 Y102.628 E42.04163
G1 X168.244 Y71.198 E43.4418
G1 X167.708 Y71.198 E43.45868
G1 X199.139 Y102.628 E44.85887
G1 X198.603 Y102.628 E44.87575
G1 X167.172 Y71.198 E46.27594
G1 X166.636 Y71.198 E46.29282
G1 X198.067 Y102.628 E47.69301
G1 X197.531 Y102.628 E47.70989
G1 X166.101 Y71.198 E49.11006
G1 X165.565 Y71.198 E49.12694
G1 X196.996 Y102.628 E50.52713
G1 X196.46 Y102.628 E50.54401
G1 X165.029 Y71.198 E51.9442
G1 X164.493 Y71.198 E51.96108
G1 X195.924 Y102.628 E53.36127
G1 X195.388 Y102.628 E53.37815
M73 P2 R74
G1 X163.958 Y71.198 E54.77832
G1 X163.422 Y71.198 E54.7952
G1 X194.852 Y102.628 E56.19537
G1 X194.317 Y102.628 E56.21222
G1 X162.886 Y71.198 E57.61241
G1 X162.35 Y71.198 E57.62929
G1 X193.781 Y102.628 E59.02948
G1 X193.245 Y102.628 E59.04636
G1 X161.815 Y71.198 E60.44653
G1 X161.279 Y71.198 E60.46341
G1 X192.709 Y102.628 E61.86358
G1 X192.174 Y102.628 E61.88043
G1 X160.743 Y71.198 E63.28062
G1 X160.207 Y71.198 E63.2975
G1 X191.638 Y102.628 E64.69769
G1 X191.102 Y102.628 E64.71457
G1 X159.671 Y71.198 E66.11476
G1 X159.136 Y71.198 E66.13161
G1 X190.566 Y102.628 E67.53178
G1 X190.031 Y102.628 E67.54863
G1 X158.6 Y71.198 E68.94882
G1 X158.064 Y71.198 E68.9657
G1 X189.495 Y102.628 E70.36589
G1 X188.959 Y102.628 E70.38277
G1 X157.528 Y71.198 E71.78296
G1 X156.993 Y71.198 E71.79981
G1 X188.423 Y102.628 E73.19998
G1 X187.888 Y102.628 E73.21683
G1 X156.457 Y71.198 E74.61702
G1 X155.921 Y71.198 E74.6339
G1 X187.352 Y102.628 E76.03409
G1 X186.816 Y102.628 E76.05097
G1 X155.385 Y71.198 E77.45116
G1 X154.85 Y71.198 E77.46801
G1 X186.28 Y102.628 E78.86818
G1 X185.745 Y102.628 E78.88503
G1 X154.314 Y71.198 E80.28522
G1 X153.778 Y71.198 E80.3021
G1 X185.209 Y102.628 E81.70229
G1 X184.673 Y102.628 E81.71917
G1 X153.242 Y71.198 E83.11936
G1 X152.707 Y71.198 E83.13621
G1 X184.137 Y102.628 E84.53638
G1 X183.601 Y102.628 E84.55326
G1 X152.171 Y71.198 E85.95343
G1 X151.635 Y71.198 E85.97031
G1 X183.066 Y102.628 E87.3705
G1 X182.53 Y102.628 E87.38738
G1 X151.099 Y71.198 E88.78757
G1 X150.564 Y71.198 E88.80442
G1 X181.994 Y102.628 E90.20459
G1 X181.458 Y102.628 E90.22147
M73 P2 R73
G1 X150.028 Y71.198 E91.62164
G1 X149.492 Y71.198 E91.63852
G1 X180.923 Y102.628 E93.03871
G1 X180.387 Y102.628 E93.05559
G1 X148.956 Y71.198 E94.45578
G1 X148.42 Y71.198 E94.47266
G1 X179.851 Y102.628 E95.87285
G1 X179.315 Y102.628 E95.88973
M73 P3 R73
G1 X147.885 Y71.198 E97.2899
G1 X147.349 Y71.198 E97.30678
G1 X178.78 Y102.628 E98.70697
G1 X178.244 Y102.628 E98.72385
G1 X146.813 Y71.198 E100.12404
G1 X146.277 Y71.198 E100.14092
G1 X177.708 Y102.628 E101.54111
G1 X177.172 Y102.628 E101.55799
G1 X145.742 Y71.198 E102.95816
G1 X145.206 Y71.198 E102.97504
G1 X176.637 Y102.628 E104.37523
G1 X176.101 Y102.628 E104.39211
G1 X144.67 Y71.198 E105.7923
G1 X144.134 Y71.198 E105.80918
G1 X175.565 Y102.628 E107.20937
G1 X175.029 Y102.628 E107.22625
G1 X143.599 Y71.198 E108.62642
G1 X143.063 Y71.198 E108.6433
G1 X174.494 Y102.628 E110.04349
G1 X173.958 Y102.628 E110.06037
G1 X142.527 Y71.198 E111.46056
G1 X141.991 Y71.198 E111.47744
G1 X173.422 Y102.628 E112.87763
G1 X172.886 Y102.628 E112.89451
G1 X141.456 Y71.198 E114.29468
G1 X140.92 Y71.198 E114.31156
G1 X172.35 Y102.628 E115.71173
G1 X171.815 Y102.628 E115.72858
G1 X140.384 Y71.198 E117.12877
G1 X140.314 Y71.198 E117.13098
G1 X140.314 Y71.663 E117.14563
G1 X171.279 Y102.628 E118.52508
G1 X170.743 Y102.628 E118.54196
G1 X140.314 Y72.199 E119.89754
G1 X140.314 Y72.735 E119.91442
G1 X170.207 Y102.628 E121.24612
G1 X169.672 Y102.628 E121.26297
G1 X140.314 Y73.27 E122.57083
G1 X140.314 Y73.806 E122.58771
G1 X169.136 Y102.628 E123.8717
G1 X168.6 Y102.628 E123.88858
G1 X140.314 Y74.342 E125.14869
G1 X140.314 Y74.878 E125.16557
G1 X168.064 Y102.628 E126.4018
G1 X167.529 Y102.628 E126.41865
G1 X140.314 Y75.413 E127.63105
G1 X140.314 Y75.949 E127.64793
G1 X166.993 Y102.628 E128.83646
G1 X166.457 Y102.628 E128.85333
G1 X140.314 Y76.485 E130.01797
G1 X140.314 Y77.021 E130.03485
G1 X165.921 Y102.628 E131.17561
G1 X165.386 Y102.628 E131.19246
G1 X140.314 Y77.556 E132.30939
G1 X140.314 Y78.092 E132.32627
G1 X164.85 Y102.628 E133.41933
G1 X164.314 Y102.628 E133.4362
G1 X140.314 Y78.628 E134.50537
G1 X140.314 Y79.164 E134.52225
G1 X163.778 Y102.628 E135.56754
G1 X163.243 Y102.628 E135.5844
G1 X140.314 Y79.7 E136.60583
G1 X140.314 Y80.235 E136.62268
G1 X162.707 Y102.628 E137.62026
G1 X162.171 Y102.628 E137.63715
G1 X140.314 Y80.771 E138.61084
G1 X140.314 Y81.307 E138.62772
M73 P4 R73
G1 X161.635 Y102.628 E139.57755
G1 X161.099 Y102.628 E139.59442
G1 X140.314 Y81.843 E140.52037
G1 X140.314 Y82.378 E140.53722
G1 X160.564 Y102.628 E141.43933
G1 X160.028 Y102.628 E141.45621
G1 X140.314 Y82.914 E142.33446
G1 X140.314 Y83.45 E142.35133
G1 X159.492 Y102.628 E143.20569
G1 X158.956 Y102.628 E143.22257
G1 X140.314 Y83.986 E144.05305
G1 X140.314 Y84.521 E144.0699
G1 X158.421 Y102.628 E144.87656
G1 X157.885 Y102.628 E144.89343
G1 X140.314 Y85.057 E145.6762
G1 X140.314 Y85.593 E145.69308
M73 P4 R72
G1 X157.349 Y102.628 E146.45197
G1 X156.813 Y102.628 E146.46886
G1 X140.314 Y86.129 E147.20386
G1 X140.314 Y86.664 E147.22071
G1 X156.278 Y102.628 E147.93189
G1 X155.742 Y102.628 E147.94878
G1 X140.314 Y87.2 E148.63607
G1 X140.314 Y87.736 E148.65295
G1 X155.206 Y102.628 E149.31638
G1 X154.67 Y102.628 E149.33325
G1 X140.314 Y88.272 E149.97279
G1 X140.314 Y88.807 E149.98964
G1 X154.135 Y102.628 E150.60535
G1 X153.599 Y102.628 E150.62223
G1 X140.314 Y89.343 E151.21407
G1 X140.314 Y89.879 E151.23094
G1 X153.063 Y102.628 E151.79889
G1 X152.527 Y102.628 E151.81577
G1 X140.314 Y90.415 E152.35984
G1 X140.314 Y90.951 E152.37672
G1 X151.992 Y102.628 E152.89694
G1 X151.456 Y102.628 E152.91382
G1 X140.314 Y91.486 E153.41019
G1 X140.314 Y92.022 E153.42706
G1 X150.92 Y102.628 E153.89954
G1 X150.384 Y102.628 E153.91643
G1 X140.314 Y92.558 E154.36504
G1 X140.314 Y93.094 E154.38191
G1 X149.848 Y102.628 E154.80664
G1 X149.313 Y102.628 E154.82349
G1 X140.314 Y93.629 E155.22438
G1 X140.314 Y94.165 E155.24126
G1 X148.777 Y102.628 E155.61829
G1 X148.241 Y102.628 E155.63516
G1 X140.314 Y94.701 E155.9883
G1 X140.314 Y95.237 E156.00518
G1 X147.705 Y102.628 E156.33444
G1 X147.17 Y102.628 E156.35129
G1 X140.314 Y95.772 E156.65672
G1 X140.314 Y96.308 E156.6736
G1 X146.634 Y102.628 E156.95515
G1 X146.098 Y102.628 E156.97203
G1 X140.314 Y96.844 E157.22971
G1 X140.314 Y97.38 E157.24658
G1 X145.562 Y102.628 E157.48038
G1 X145.027 Y102.628 E157.49722
G1 X140.314 Y97.915 E157.70718
G1 X140.314 Y98.451 E157.72406
G1 X144.491 Y102.628 E157.91014
G1 X143.955 Y102.628 E157.92702
G1 X140.314 Y98.987 E158.08922
G1 X140.314 Y99.523 E158.1061
G1 X143.419 Y102.628 E158.24442
G1 X142.884 Y102.628 E158.26128
G1 X140.314 Y100.058 E158.37576
G1 X140.314 Y100.594 E158.39264
G1 X142.348 Y102.628 E158.48325
G1 X141.812 Y102.628 E158.50014
G1 X140.314 Y101.13 E158.56686
G1 X140.314 Y101.666 E158.58374
G1 X141.276 Y102.628 E158.6266
G1 X140.741 Y102.628 E158.64345
G1 X140.144 Y102.032 E158.67002
G1 E158.17002
G92 E0
G1 X140.144 Y102.032 Z.5 F5999
G92 E0
G1 X149.179 Y65.312 F6000
G1 Z.2
G1 E.5 F1800
;TYPE:Perimeter
;WIDTH:0.419999
G1 X149.149 Y65.307 E.50095
G1 X148.808 Y65.125 E.51307
G1 X148.619 Y64.9 E.52228
G1 X148.543 Y64.594 E.53217
G1 X148.543 Y42.856 E1.21375
G1 X148.619 Y42.45 E1.2267
G1 X148.808 Y42.225 E1.23591
G1 X149.176 Y42.028 E1.249
G1 X149.739 Y41.939 E1.26687
G1 X177.309 Y41.945 E2.13131
G1 X177.832 Y42.028 E2.14791
G1 X178.2 Y42.225 E2.161
G1 X178.389 Y42.45 E2.17021
G1 X178.465 Y42.856 E2.18316
G1 X178.465 Y64.494 E2.8616
G1 X178.389 Y64.9 E2.87455
G1 X178.2 Y65.125 E2.88376
G1 X177.832 Y65.322 E2.89685
G1 X177.269 Y65.411 E2.91472
