; generated by PrusaSlicer 2.9.0 on 2025-07-07 at 03:08:38 UTC

; 

; external perimeters extrusion width = 0.42mm
; perimeters extrusion width = 0.42mm
; infill extrusion width = 0.42mm
; solid infill extrusion width = 0.42mm
; top infill extrusion width = 0.42mm
; support material extrusion width = 0.35mm
; first layer extrusion width = 0.42mm

; external perimeters extrusion width = 0.42mm
; perimeters extrusion width = 0.42mm
; infill extrusion width = 0.42mm
; solid infill extrusion width = 0.42mm
; top infill extrusion width = 0.42mm
; support material extrusion width = 0.35mm
; first layer extrusion width = 0.42mm

M73 P0 R22
M190 S60 ; set bed temperature and wait for it to be reached
M104 S215 ; set temperature
;TYPE:Custom
G28 ; home all axes
G1 Z5 F5000 ; lift nozzle
M109 S215 ; set temperature and wait for it to be reached
G21 ; set units to millimeters
G90 ; use absolute coordinates
M82 ; use absolute distances for extrusion
G92 E0
; Filament gcode
M107
;LAYER_CHANGE
;Z:0.2
;HEIGHT:0.2
G1 E-.5 F1800
G1 Z.5 F6000
G1 X108.931 Y51.86
G1 Z.2
G1 E.00001 F1800
M201 X2000 Y2000
;TYPE:Skirt/Brim
;WIDTH:0.42
G1 X110.071 Y49.96 E.06253
G1 X111.807 Y48.582 E.12508
G1 X113.407 Y47.994 E.17318
G1 X150.698 Y39.878 E1.25012
G1 X152.014 Y39.737 E1.28747
G1 X186.214 Y39.737 E2.25256
G1 X188.394 Y40.134 E2.31509
M73 P0 R21
G1 X190.295 Y41.273 E2.37763
G1 X191.672 Y43.009 E2.44016
G1 X192.402 Y45.925 E2.52499
G1 X192.402 Y91.425 E3.80895
G1 X192.006 Y93.606 E3.8715
G1 X190.866 Y95.506 E3.93403
G1 X189.13 Y96.884 E3.99658
G1 X186.214 Y97.614 E4.08141
G1 X152.014 Y97.614 E5.0465
G1 X150.333 Y97.381 E5.09439
G1 X113.042 Y86.856 E6.18781
G1 X111.052 Y85.882 E6.25033
G1 X109.532 Y84.27 E6.31285
G1 X108.678 Y82.225 E6.37539
G1 X108.534 Y80.901 E6.41297
G1 X108.534 Y54.041 E7.17093
G1 X108.92 Y51.919 E7.23179
G1 E6.73179
G92 E0
M202 X2000 Y2000
G1 X108.92 Y51.919 Z.5 F6000
G92 E0
G1 X183.11 Y88.966
G1 Z.2
G1 E.5 F1800
;TYPE:External perimeter
;WIDTH:0.419999
G1 X183.118 Y88.93 E.50104
G1 X183.392 Y88.546 E.51435
G1 X183.79 Y88.297 E.5276
G1 X184.234 Y88.22 E.54032
G1 X184.714 Y88.325 E.55419
G1 X185.098 Y88.598 E.56749
G1 X185.348 Y88.998 E.5808
;WIDTH:0.454171
G1 F1706.994
G1 X185.391 Y89.154 E.58578
;WIDTH:0.488343
G1 F1568.265
G1 X185.434 Y89.31 E.59117
;WIDTH:0.522514
G1 F1447.107
G1 X185.477 Y89.467 E.59701
G1 F1438.031
G1 X185.424 Y89.618 E.60275
;WIDTH:0.488343
G1 F1539.16
G1 X185.372 Y89.77 E.6081
;WIDTH:0.454171
G1 F1654.063
G1 X185.319 Y89.921 E.61303
;WIDTH:0.419999
G1 F1800
G1 X185.046 Y90.305 E.62633
G1 X184.647 Y90.554 E.6396
;WIDTH:0.455349
G1 F1703.166
G1 X184.488 Y90.597 E.64468
;WIDTH:0.490699
G1 F1557.506
G1 X184.33 Y90.641 E.65018
;WIDTH:0.526049
G1 F1435.576
G1 X184.172 Y90.684 E.6561
G1 F1426.539
G1 X184.022 Y90.631 E.66185
;WIDTH:0.490699
G1 F1528.615
G1 X183.873 Y90.579 E.66714
;WIDTH:0.455349
G1 F1650.499
G1 X183.723 Y90.526 E.67205
;WIDTH:0.419999
G1 F1800
G1 X183.34 Y90.252 E.68534
G1 X183.09 Y89.853 E.69863
G1 X183.012 Y89.389 E.71191
G1 X183.096 Y89.025 E.72245
G1 X183.301 Y88.681 F6000
G1 E.22245 F1800
G92 E0
G1 Z.5 F6000
G1 X155.209 Y89.425
G1 Z.2
G1 E.5 F1800
G1 X155.215 Y89.462 E.50106
G1 X155.109 Y89.921 E.51435
G1 X154.836 Y90.305 E.52765
G1 X154.437 Y90.554 E.54092
;WIDTH:0.455349
G1 F1703.235
G1 X154.278 Y90.597 E.546
;WIDTH:0.490699
G1 F1557.535
G1 X154.12 Y90.641 E.5515
;WIDTH:0.526049
G1 F1435.489
G1 X153.962 Y90.684 E.55742
G1 F1426.711
G1 X153.812 Y90.631 E.56317
;WIDTH:0.490699
G1 F1528.678
G1 X153.663 Y90.579 E.56846
;WIDTH:0.455349
G1 F1650.549
G1 X153.513 Y90.526 E.57337
;WIDTH:0.419999
G1 F1800
G1 X153.13 Y90.252 E.58666
G1 X152.88 Y89.853 E.59995
;WIDTH:0.454508
G1 F1705.997
G1 X152.837 Y89.695 E.60499
;WIDTH:0.489017
G1 F1562.896
G1 X152.794 Y89.537 E.61046
;WIDTH:0.523526
G1 F1443.739
G1 X152.752 Y89.378 E.61637
G1 F1432.213
G1 X152.804 Y89.229 E.62205
;WIDTH:0.489017
G1 F1534.428
G1 X152.856 Y89.079 E.62735
;WIDTH:0.454508
G1 F1653.787
G1 X152.908 Y88.93 E.63221
;WIDTH:0.419999
G1 F1800
G1 X153.182 Y88.546 E.64552
G1 X153.58 Y88.297 E.65877
G1 X154.024 Y88.22 E.67149
G1 X154.504 Y88.325 E.68536
G1 X154.888 Y88.598 E.69866
G1 X155.138 Y88.998 E.71197
G1 X155.199 Y89.366 E.7225
G1 X155.142 Y89.762 F6000
G1 E.2225 F1800
G92 E0
G1 Z.5 F6000
G1 X154.009 Y49.126
G1 Z.2
M73 P1 R21
G1 E.5 F1800
G1 X153.972 Y49.132 E.50106
G1 X153.513 Y49.026 E.51435
G1 X153.13 Y48.752 E.52764
G1 X152.88 Y48.353 E.54093
;WIDTH:0.469854
G1 F1642.2
G1 X152.817 Y48.162 E.54736
;WIDTH:0.519709
G1 F1461.256
G1 X152.753 Y47.972 E.55451
;WIDTH:0.523525
G1 F1440.981
G1 X152.752 Y47.878 E.55789
G1 F1432.181
G1 X152.804 Y47.729 E.56357
;WIDTH:0.489017
G1 F1534.514
G1 X152.856 Y47.579 E.56887
;WIDTH:0.454508
G1 F1653.788
G1 X152.908 Y47.43 E.57373
;WIDTH:0.419999
G1 F1800
G1 X153.182 Y47.046 E.58704
;WIDTH:0.421451
G1 X153.58 Y46.796 E.60035
;WIDTH:0.456431
G1 F1697.662
G1 X153.731 Y46.753 E.60521
;WIDTH:0.491411
G1 F1557.231
G1 X153.882 Y46.711 E.61047
;WIDTH:0.526391
G1 F1435.879
G1 X154.033 Y46.668 E.61615
G1 F1427.35
G1 X154.19 Y46.72 E.62213
;WIDTH:0.490927
G1 F1528.075
G1 X154.347 Y46.773 E.62769
;WIDTH:0.455463
G1 F1649.385
G1 X154.504 Y46.825 E.6328
;WIDTH:0.419999
G1 F1800
G1 X154.888 Y47.098 E.6461
G1 X155.138 Y47.498 E.65941
G1 X155.215 Y47.962 E.67268
G1 X155.109 Y48.421 E.68597
G1 X154.836 Y48.804 E.69924
G1 X154.437 Y49.054 E.71253
G1 X154.068 Y49.116 E.72309
G1 X153.673 Y49.058 F6000
G1 E.22309 F1800
G92 E0
G1 Z.5 F6000
G1 X183.019 Y47.926
G1 Z.2
G1 E.5 F1800
G1 X183.012 Y47.889 E.50106
G1 X183.118 Y47.43 E.51435
G1 X183.392 Y47.046 E.52766
;WIDTH:0.421451
G1 X183.79 Y46.796 E.54097
;WIDTH:0.456432
G1 F1697.662
G1 X183.941 Y46.753 E.54583
;WIDTH:0.491412
G1 F1557.231
G1 X184.092 Y46.711 E.55109
;WIDTH:0.526392
G1 F1435.879
G1 X184.243 Y46.668 E.55677
G1 F1427.35
G1 X184.4 Y46.72 E.56275
;WIDTH:0.490928
G1 F1528.208
G1 X184.557 Y46.773 E.56831
;WIDTH:0.455464
G1 F1649.385
G1 X184.714 Y46.825 E.57342
;WIDTH:0.419999
G1 F1800
G1 X185.098 Y47.098 E.58672
G1 X185.348 Y47.498 E.60003
;WIDTH:0.454508
G1 F1701.738
G1 X185.39 Y47.625 E.60415
;WIDTH:0.489017
G1 F1561.358
G1 X185.433 Y47.752 E.60863
;WIDTH:0.523525
G1 F1442.591
G1 X185.476 Y47.878 E.61342
G1 F1435.464
G1 X185.433 Y48.037 E.61934
;WIDTH:0.489017
G1 F1534.54
G1 X185.39 Y48.195 E.62481
;WIDTH:0.454508
G1 F1652.816
G1 X185.348 Y48.353 E.62985
;WIDTH:0.419999
G1 F1800
G1 X185.046 Y48.804 E.64517
G1 X184.647 Y49.054 E.65846
G1 X184.182 Y49.132 E.67177
G1 X183.723 Y49.026 E.68506
G1 X183.34 Y48.752 E.69835
G1 X183.09 Y48.353 E.71164
G1 X183.028 Y47.985 E.72217
G1 X183.086 Y47.589 F6000
G1 E.22217 F1800
G92 E0
G1 Z.5 F6000
G1 X185.637 Y90.096
G1 Z.2
G1 E.5 F1800
;TYPE:Perimeter
;WIDTH:0.400235
G1 X185.637 Y90.848 E.52011
G1 X184.878 Y90.848 E.54041
G1 X185.332 Y90.543 E.55503
G1 X185.603 Y90.146 E.56788
G1 E.06788
G92 E0
G1 X185.603 Y90.146 Z.5 F6000
G1 X153.35 Y90.848
G1 Z.2
G1 E.5 F1800
;WIDTH:0.400234
G1 X152.591 Y90.848 E.5203
G1 X152.591 Y90.096 E.54041
G1 X152.895 Y90.543 E.55486
G1 X153.3 Y90.815 E.56791
G1 E.06791
G92 E0
G1 X153.3 Y90.815 Z.5 F6000
G1 X152.591 Y47.254
G1 Z.2
G1 E.5 F1800
;WIDTH:0.400235
G1 X152.591 Y46.503 E.52008
G1 X153.35 Y46.503 E.54038
G1 X152.895 Y46.808 E.55503
G1 X152.625 Y47.205 E.56787
G1 E.06787
G92 E0
G1 X152.625 Y47.205 Z.5 F6000
G1 X184.877 Y46.503
G1 Z.2
G1 E.5 F1800
G1 X185.637 Y46.503 E.52032
G1 X185.637 Y46.681 E.52508
G1 X185.637 Y47.254 E.5404
G1 X185.332 Y46.808 E.55485
G1 X184.927 Y46.536 E.5679
G1 E.0679
G92 E0
G1 X184.927 Y46.536 Z.5 F6000
G1 X182.84 Y49.299
G1 Z.2
G1 E.5 F1800
;WIDTH:0.419999
G1 X182.973 Y49.432 E.50531
G1 X183.442 Y49.729 E.52098
G1 X184.035 Y49.872 E.53819
G1 X184.403 Y49.872 E.54857
G1 X184.794 Y49.794 E.55982
G1 X185.25 Y49.575 E.57409
G1 X185.25 Y87.775 E1.65205
G1 X184.781 Y87.555 E1.66667
G1 X184.371 Y87.479 E1.67844
G1 X184.011 Y87.482 E1.6886
G1 X183.44 Y87.622 E1.70519
G1 X182.973 Y87.919 E1.72081
G1 X182.713 Y88.179 E1.73119
G1 X182.415 Y88.649 E1.74689
G1 X182.273 Y89.241 E1.76407
G1 X182.273 Y89.609 E1.77445
G1 X182.35 Y90 E1.7857
G1 X182.572 Y90.461 E1.80014
G1 X155.655 Y90.461 E2.55971
G1 X155.877 Y90 E2.57415
G1 X155.955 Y89.609 E2.5854
G1 X155.955 Y89.241 E2.59578
G1 X155.813 Y88.649 E2.61296
G1 X155.515 Y88.179 E2.62866
G1 X155.255 Y87.919 E2.63904
G1 X154.781 Y87.62 E2.65485
G1 X154.161 Y87.479 E2.67279
G1 X153.801 Y87.482 E2.68295
G1 X153.429 Y87.558 E2.69366
G1 X152.978 Y87.775 E2.70778
G1 X152.978 Y49.575 E3.78574
G1 X153.434 Y49.794 E3.80001
G1 X153.825 Y49.872 E3.81126
G1 X154.193 Y49.872 E3.82164
G1 X154.786 Y49.729 E3.83885
G1 X155.255 Y49.432 E3.85452
G1 X155.515 Y49.171 E3.86492
G1 X155.813 Y48.702 E3.8806
G1 X155.955 Y48.109 E3.89781
G1 X155.955 Y47.741 E3.90819
G1 X155.877 Y47.351 E3.91941
G1 X155.655 Y46.89 E3.93385
G1 X182.572 Y46.89 E4.69342
G1 X182.35 Y47.351 E4.70786
G1 X182.273 Y47.741 E4.71908
G1 X182.273 Y48.109 E4.72946
G1 X182.415 Y48.702 E4.74667
G1 X182.713 Y49.171 E4.76235
G1 X182.798 Y49.257 E4.76576
G1 E4.26576
G92 E0
G1 X182.798 Y49.257 Z.5 F6000
G1 X183.396 Y46.59
G1 Z.2
G1 E.5 F1800
G1 X183.182 Y46.733 E.50726
G1 X183.026 Y46.889 E.51349
G1 X182.805 Y47.22 E.52472
G1 X182.72 Y47.424 E.53096
G1 X182.642 Y47.815 E.54221
G1 X182.642 Y48.036 E.54845
G1 X182.72 Y48.427 E.5597
G1 X182.805 Y48.631 E.56594
G1 X183.133 Y49.081 E.58165
G1 X183.596 Y49.385 E.59728
G1 X184.108 Y49.502 E.6121
G1 X184.329 Y49.502 E.61834
G1 X184.72 Y49.424 E.62959
G1 X184.924 Y49.339 E.63583
G1 X185.255 Y49.118 E.64706
G1 X185.411 Y48.962 E.65329
G1 X185.627 Y48.64 E.66423
G1 X185.627 Y88.711 E1.79499
G1 X185.411 Y88.389 E1.80593
G1 X185.255 Y88.233 E1.81216
G1 X184.924 Y88.011 E1.82341
G1 X184.713 Y87.925 E1.82984
G1 X184.302 Y87.85 E1.84163
G1 X184.086 Y87.852 E1.84773
G1 X183.715 Y87.927 E1.85841
G1 X183.514 Y88.011 E1.86456
G1 X183.063 Y88.34 E1.88031
G1 X182.759 Y88.803 E1.89594
G1 X182.642 Y89.315 E1.91076
G1 X182.642 Y89.536 E1.917
G1 X182.72 Y89.927 E1.92825
G1 X182.805 Y90.131 E1.93449
G1 X183.026 Y90.462 E1.94572
G1 X183.182 Y90.618 E1.95195
G1 X183.512 Y90.838 E1.96314
G1 X154.716 Y90.838 E2.77573
G1 X155.045 Y90.618 E2.7869
G1 X155.201 Y90.462 E2.79313
G1 X155.423 Y90.131 E2.80438
G1 X155.507 Y89.927 E2.81061
G1 X155.585 Y89.536 E2.82186
G1 X155.585 Y89.315 E2.8281
G1 X155.507 Y88.924 E2.83935
G1 X155.423 Y88.72 E2.84558
G1 X155.095 Y88.27 E2.86129
G1 X154.629 Y87.964 E2.87702
G1 X154.092 Y87.85 E2.89251
G1 X153.876 Y87.852 E2.89861
G1 X153.505 Y87.927 E2.90929
G1 X153.304 Y88.011 E2.91544
G1 X152.972 Y88.233 E2.92671
G1 X152.816 Y88.389 E2.93294
G1 X152.601 Y88.711 E2.94387
G1 X152.601 Y48.64 E4.07463
G1 X152.816 Y48.962 E4.08556
M73 P2 R21
G1 X152.972 Y49.118 E4.09179
G1 X153.304 Y49.339 E4.10304
G1 X153.508 Y49.424 E4.10928
G1 X153.898 Y49.502 E4.1205
G1 X154.119 Y49.502 E4.12674
G1 X154.51 Y49.424 E4.13799
G1 X154.714 Y49.339 E4.14423
G1 X155.165 Y49.011 E4.15997
G1 X155.469 Y48.548 E4.1756
G1 X155.585 Y48.036 E4.19041
G1 X155.585 Y47.815 E4.19665
G1 X155.507 Y47.424 E4.2079
G1 X155.423 Y47.22 E4.21413
G1 X155.201 Y46.889 E4.22538
G1 X155.045 Y46.733 E4.23161
G1 X154.716 Y46.512 E4.24279
G1 X183.512 Y46.512 E5.05538
G1 X183.446 Y46.556 E5.05762
G1 E4.55762
G92 E0
G1 X183.446 Y46.556 Z.5 F6000
G1 X186.004 Y46.135
G1 Z.2
G1 E.5 F1800
;TYPE:External perimeter
G1 X186.004 Y46.681 E.51541
G1 X186.004 Y47.222 E.53068
;WIDTH:0.454508
G1 F1719.527
G1 X185.987 Y47.425 E.53695
;WIDTH:0.489017
G1 F1575.059
G1 X185.969 Y47.628 E.54375
;WIDTH:0.523525
G1 F1450.469
G1 X185.952 Y47.832 E.55111
G1 F1438.431
G1 X185.969 Y48.027 E.55815
;WIDTH:0.489017
G1 F1537.3
G1 X185.987 Y48.222 E.56469
;WIDTH:0.454508
G1 F1654.772
G1 X186.004 Y48.418 E.57075
;WIDTH:0.419999
G1 F1800
G1 X186.004 Y88.722 E1.70808
;WIDTH:0.454508
G1 F1719.589
G1 X185.987 Y88.925 E1.71435
;WIDTH:0.489017
G1 F1575.029
G1 X185.969 Y89.128 E1.72115
;WIDTH:0.523525
G1 F1450.492
G1 X185.952 Y89.332 E1.72851
G1 F1438.431
G1 X185.969 Y89.527 E1.73555
;WIDTH:0.489017
G1 F1537.326
G1 X185.987 Y89.722 E1.74209
;WIDTH:0.454508
G1 F1654.785
G1 X186.004 Y89.918 E1.74815
;WIDTH:0.419999
G1 F1800
G1 X186.004 Y91.215 E1.78475
G1 X184.924 Y91.215 E1.81523
;WIDTH:0.455011
G1 F1715.132
G1 X184.716 Y91.198 E1.82167
;WIDTH:0.490022
G1 F1571.057
G1 X184.509 Y91.18 E1.82862
;WIDTH:0.525033
G1 F1445.719
G1 X184.302 Y91.163 E1.83611
G1 F1434.399
G1 X184.11 Y91.18 E1.84306
;WIDTH:0.490022
G1 F1534.703
G1 X183.918 Y91.198 E1.84951
;WIDTH:0.455011
G1 F1653.885
G1 X183.726 Y91.215 E1.85545
;WIDTH:0.419999
G1 F1800
G1 X154.714 Y91.215 E2.67413
;WIDTH:0.455011
G1 F1715.34
G1 X154.506 Y91.198 E2.68057
;WIDTH:0.490022
G1 F1571.051
G1 X154.299 Y91.18 E2.68752
;WIDTH:0.525033
G1 F1445.787
G1 X154.092 Y91.163 E2.69501
G1 F1434.419
G1 X153.9 Y91.18 E2.70196
;WIDTH:0.490022
G1 F1534.751
G1 X153.708 Y91.198 E2.70841
;WIDTH:0.455011
G1 F1653.841
G1 X153.516 Y91.215 E2.71435
;WIDTH:0.419999
G1 F1800
G1 X152.224 Y91.215 E2.75081
G1 X152.224 Y90.129 E2.78146
;WIDTH:0.454171
G1 F1720.063
G1 X152.241 Y89.922 E2.78785
;WIDTH:0.488343
G1 F1576.925
G1 X152.258 Y89.715 E2.79477
;WIDTH:0.522514
G1 F1453.229
G1 X152.275 Y89.508 E2.80222
G1 F1441.455
G1 X152.258 Y89.317 E2.8091
;WIDTH:0.488343
G1 F1538.673
G1 X152.241 Y89.125 E2.81553
;WIDTH:0.454171
G1 F1656.708
G1 X152.224 Y88.933 E2.82146
;WIDTH:0.419999
G1 F1800
G1 X152.224 Y48.629 E3.95879
;WIDTH:0.454171
G1 F1720.146
G1 X152.241 Y48.422 E3.96518
;WIDTH:0.488343
G1 F1577.002
G1 X152.258 Y48.215 E3.9721
;WIDTH:0.522514
G1 F1453.401
G1 X152.275 Y48.008 E3.97955
G1 F1441.449
G1 X152.258 Y47.817 E3.98643
;WIDTH:0.488343
G1 F1538.752
G1 X152.241 Y47.625 E3.99286
;WIDTH:0.454171
G1 F1656.794
G1 X152.224 Y47.433 E3.99879
;WIDTH:0.419999
G1 F1800
G1 X152.224 Y46.135 E4.03542
G1 X153.304 Y46.135 E4.0659
;WIDTH:0.454122
G1 F1717.677
G1 X153.532 Y46.152 E4.07294
;WIDTH:0.488245
G1 F1573.603
G1 X153.761 Y46.17 E4.0806
;WIDTH:0.522367
G1 F1450.347
G1 X153.989 Y46.187 E4.0888
G1 F1439.342
G1 X154.158 Y46.17 E4.09489
;WIDTH:0.488245
G1 F1538.509
G1 X154.326 Y46.152 E4.10052
;WIDTH:0.454122
G1 F1654.532
G1 X154.495 Y46.135 E4.10575
;WIDTH:0.419999
G1 F1800
G1 X183.514 Y46.135 E4.92463
;WIDTH:0.454122
G1 X183.742 Y46.152 E4.93167
;WIDTH:0.488245
G1 F1699.931
G1 X183.971 Y46.17 E4.93933
;WIDTH:0.522367
G1 F1569.048
G1 X184.199 Y46.187 E4.94753
G1 F1558.624
G1 X184.368 Y46.17 E4.95362
;WIDTH:0.488245
G1 F1667.795
G1 X184.536 Y46.152 E4.95925
;WIDTH:0.454122
G1 F1800
G1 X184.705 Y46.135 E4.96448
;WIDTH:0.419999
G1 X185.944 Y46.135 E4.99944
G1 X186.003 Y46.531 F6000
G1 E4.49944 F1800
G92 E0
G1 Z.5 F6000
G1 X182.143 Y47.622
G1 Z.2
G1 E.5 F1800
;TYPE:Solid infill
;WIDTH:0.422449
G1 X181.731 Y47.21 E.51655
G1 X181.194 Y47.21 E.5318
G1 X182.125 Y48.141 E.5692
G1 E.0692
G92 E0
G1 X182.125 Y48.141 Z.5 F6000
G1 X184.523 Y50.001
G1 Z.2
G1 E.5 F1800
G1 X184.929 Y50.408 E.51633
G1 X184.929 Y50.945 E.53158
G1 X184.003 Y50.019 E.56877
G1 X184.003 Y50.019 F6000
G1 X185.099 Y51.651
G1 F1800
G1 X183.545 Y50.097 E.63119
G1 X183.309 Y50.022 E.63822
G1 X182.791 Y49.696 E.6556
G1 X182.602 Y49.541 E.66254
G1 X182.449 Y49.354 E.6694
G1 X182.122 Y48.836 E.6868
G1 X182.047 Y48.599 E.69386
G1 X180.658 Y47.21 E.74965
G1 X180.121 Y47.21 E.7649
G1 X184.929 Y52.018 E.95802
G1 X184.929 Y52.555 E.97327
G1 X179.584 Y47.21 E1.18796
G1 X179.047 Y47.21 E1.20321
G1 X184.929 Y53.092 E1.43947
G1 X184.929 Y53.628 E1.45469
G1 X178.511 Y47.21 E1.71248
G1 X177.974 Y47.21 E1.72773
G1 X184.929 Y54.165 E2.00709
G1 X184.929 Y54.702 E2.02234
G1 X177.437 Y47.21 E2.32327
G1 X176.901 Y47.21 E2.33849
G1 X184.929 Y55.239 E2.66097
G1 X184.929 Y55.775 E2.67619
G1 X176.364 Y47.21 E3.02022
G1 X175.827 Y47.21 E3.03547
G1 X184.929 Y56.312 E3.40107
G1 X184.929 Y56.849 E3.41632
G1 X175.29 Y47.21 E3.80349
G1 X174.754 Y47.21 E3.81871
G1 X184.929 Y57.386 E4.22743
G1 X184.929 Y57.922 E4.24265
G1 X174.217 Y47.21 E4.67292
M73 P3 R21
G1 X173.68 Y47.21 E4.68817
G1 X184.929 Y58.459 E5.14001
G1 X184.929 Y58.996 E5.15526
G1 X173.143 Y47.21 E5.62867
G1 X172.607 Y47.21 E5.64389
G1 X184.929 Y59.533 E6.13884
G1 X184.929 Y60.069 E6.15406
G1 X172.07 Y47.21 E6.67056
